/* XPM */
static char *result[] = {
/* columns rows colors chars-per-pixel */
"32 32 114 2 ",
"   c #373753",
".  c #3B3B57",
"X  c #3E3E59",
"o  c #4E4E67",
"O  c #504B66",
"+  c #495F69",
"@  c #56546B",
"#  c #5B546C",
"$  c #59596E",
"%  c #5E5C70",
"&  c #60596F",
"*  c #615C71",
"=  c #4E626D",
"-  c #546571",
";  c #536973",
":  c #5E6B76",
">  c #5E757A",
",  c #646475",
"<  c #6B6476",
"1  c #6A6578",
"2  c #606D78",
"3  c #6D6B7A",
"4  c #726B7C",
"5  c #61737B",
"6  c #71727E",
"7  c #5A837E",
"8  c #6F6880",
"9  c #767782",
"0  c #7C7C84",
"q  c #7A7389",
"w  c #7D7E90",
"e  c #5C8680",
"r  c #5C9F89",
"t  c #6F8585",
"y  c #748185",
"u  c #748888",
"i  c #7A8C8A",
"p  c #649587",
"a  c #69978A",
"s  c #7F928F",
"d  c #719B8D",
"f  c #7F8091",
"g  c #7D8A93",
"h  c #739F92",
"j  c #48A786",
"k  c #5FA18B",
"l  c #50A988",
"z  c #5CAD8E",
"x  c #45B089",
"c  c #4DB68F",
"v  c #46B88D",
"b  c #50B68F",
"n  c #53BA92",
"m  c #58BB94",
"M  c #64A48E",
"N  c #62AB8F",
"B  c #65A590",
"V  c #67A891",
"C  c #6DAD92",
"Z  c #75A494",
"A  c #7BA494",
"S  c #7DAB9A",
"D  c #64B294",
"F  c #6AB596",
"G  c #6CB897",
"H  c #73B399",
"J  c #78B79B",
"K  c #74BE9D",
"L  c #78BA9D",
"P  c #60C097",
"I  c #65C49B",
"U  c #6EC69E",
"Y  c #6DC89F",
"T  c #75C29F",
"R  c #6FCCA1",
"E  c #70C7A0",
"W  c #70C8A0",
"Q  c #7BCEA7",
"!  c #7CCEA8",
"~  c #72D1A4",
"^  c #7DD5AA",
"/  c #83838A",
"(  c #828292",
")  c #8D8695",
"_  c #8E8B96",
"`  c #928C99",
"'  c #819591",
"]  c #8C9C9C",
"[  c #95959E",
"{  c #939F9F",
"}  c #8EA19F",
"|  c #A29DA7",
" . c #A29EAC",
".. c #9AA7A5",
"X. c #9CA8A6",
"o. c #AEA7AE",
"O. c #AFAAB2",
"+. c #B0A7B0",
"@. c #B1ABB2",
"#. c #B3ACB9",
"$. c #8CD6B2",
"%. c #8EDAB5",
"&. c #93D9B7",
"*. c #BCB6C1",
"=. c #BDBEC3",
"-. c #C2C1C6",
";. c #C5C4C8",
":. c #C9C4CB",
">. c #D4D4DA",
",. c #D8D9DE",
"<. c #DDDDE1",
"1. c #E6DFE3",
"2. c #E4E0E4",
"3. c #ECE5E9",
/* pixels */
"W W R Y W Y R T W W W W W W W W U W W W W W U W W W W W U W W W ",
"E W T R T R Y R W W W W W W W W W W W W W W W W E W E W W W W E ",
"R R T W E W W W W W W W W W W W W W W U W W W W W W W W W W W W ",
"T Y R Y W W E Y W W W W W W W T W W W W W W U W W U W W W U W E ",
"W W W W W W W W W W W W U W W U W W U W W W W W T W W W W W E W ",
"W W W W W W W W W T I I Y W ~ ~ W W W W W W W Y R W E W W W W U ",
"W E R U W W W W W I n n I ~ U W ~ Y W W W W W W Y W W W W E W W ",
"W W T U I I U Q W P v x z F C C C G U R W W W W W W W U W W W W ",
"W W Q I n n I W Q P v j p i i i u h K R R W W R W U W W W W E W ",
"W W E I n b m I R P l M } o.+.+.o...S F R ~ ~ W W W W W W W W W ",
"W W T Y I m c n I F a ] -.1.2.2.1.;.{ h G ~ R R W W W W W W E W ",
"W W R W W I n c D S { O.:.>.>.>.>.:.O.] Z k r N U ~ W W E W U W ",
"W W T R W R I D d X.:.:.| f f w w  .:.=.g = + e F W ~ W W W W W ",
"W W R W W R W F s @.3.,.( X . . X ( <.<.[ % 8 g Z D U R W W W W ",
"W Y R Y W W ~ C i @.3.,.w .     . f ,.2.| ) #.#.g 7 N W W Y E W ",
"R T T R R W R C t [ -.=.( @ @ @ @ ( =.=.[ [ ;.*.q - k ~ ~ R T W ",
"T R T R W ~ R V > 3 _ [ / 6 6 6 6 / [ _ 4 9 [ ` 1 - M W ~ U W W ",
"R Y R Y W ~ W B - @ 4 / / / / / / / f 6 $ $ 6 4 @ - N W ~ Y T W ",
"Y W R T W ~ W B ; @ < 0 / / / / / / y 3 @ $ 3 3 $ : M ~ ~ W Y W ",
"U W E W R ~ R C 5 $ < 9 / / / / / / 6 , @ @ , 3 2 7 D W ^ ^ W W ",
"W W W E W ~ R H u 1 $ , 9 / / / / 0 < @ o O @ : p D U Q &.$.! W ",
"W W W W Y ~ R K A 0 , * 1 6 9 6 6 3 & # # $ - 7 F ~ ^ $.&.$.$.W ",
"W W E W W W W W T Z 0 , * $ $ $ $ , < 4 6 6 d D Y ^ %.&.$.! U T ",
"W E W Y W W W W W T A u * # # # # , u ' ' A T R R ! $.$.Q I Y Y ",
"E W R Y R Y W R R ~ T Z y 4 4 4 4 y Z L L E W W W W ^ ! W U U Y ",
"T W T R T R R T W R R K A s i s s A T R ~ W W W W W W U T R W W ",
"R W W Y U R Y W W R W U K J J J J K W R ~ W W W W W Y U T W U W ",
"Y W R T W Y T R W W W W R R R R R R W W W W W W W W W U R W W W ",
"W E W W W W W W R Y R Y R ~ R W R R R Y W E W W W W W E Y U W W ",
"W W W W W W W E T R T R R W W W R T U W W E U W W W U W W W W W ",
"T R U W W W U W T Y W W U E W W E W W W W W W U W W W W W U W W ",
"W Y W W E W W W R E W E W W U W W W W W W W W W W E W W W W W W "
};
