/* XPM */
static char *result[] = {
/* columns rows colors chars-per-pixel */
"32 32 119 2 ",
"   c #3C3B57",
".  c #3F3E5A",
"X  c #43425E",
"o  c #464660",
"O  c #4B4B65",
"+  c #4F4F68",
"@  c #504E66",
"#  c #514D68",
"$  c #4C5167",
"%  c #4A5B69",
"&  c #535364",
"*  c #515169",
"=  c #59556C",
"-  c #5A596C",
";  c #595770",
":  c #5C5C72",
">  c #605D6F",
",  c #635F74",
"<  c #4F606D",
"1  c #526671",
"2  c #556C74",
"3  c #586F76",
"4  c #5A7177",
"5  c #5F757A",
"6  c #63626E",
"7  c #6A696F",
"8  c #656471",
"9  c #6B6B74",
"0  c #6A647A",
"q  c #6F6E7A",
"w  c #737375",
"e  c #797976",
"r  c #70707D",
"t  c #79757B",
"y  c #7C7C7A",
"u  c #807F7F",
"i  c #55847D",
"p  c #5B837E",
"a  c #6B817C",
"s  c #71887D",
"d  c #82827D",
"f  c #716C81",
"g  c #777587",
"h  c #767689",
"j  c #747B8A",
"k  c #7A7C8E",
"l  c #7D7F90",
"z  c #827B81",
"x  c #71838B",
"c  c #6B9B90",
"v  c #5FA38B",
"b  c #61A48D",
"n  c #6AAB8D",
"m  c #65A790",
"M  c #69A692",
"N  c #65AA91",
"B  c #68AA91",
"V  c #69B396",
"C  c #6EC59E",
"Z  c #6FCDA3",
"A  c #70CAA1",
"S  c #72D2A5",
"D  c #74D9A8",
"F  c #89858E",
"G  c #8D8D8D",
"H  c #949387",
"J  c #94948D",
"K  c #99998D",
"L  c #959695",
"P  c #9B9B93",
"I  c #929498",
"U  c #979998",
"Y  c #9E9A9D",
"T  c #A19D9E",
"R  c #A0A094",
"E  c #A1A29D",
"W  c #ABAB9B",
"Q  c #9997A6",
"!  c #A29FA0",
"~  c #9EA3AD",
"^  c #A5A0A0",
"/  c #A5A8A3",
"(  c #ABACA1",
")  c #ABABA9",
"_  c #AFB0A1",
"`  c #BBBBA5",
"'  c #B5B5AC",
"]  c #BBBDAE",
"[  c #B5AFB8",
"{  c #B3B2B6",
"}  c #BABCB1",
"|  c #B3B4B9",
" . c #B9B8BA",
".. c #C1C1B5",
"X. c #CCCCBF",
"o. c #B6BCC3",
"O. c #B9BEC5",
"+. c #BBC1C6",
"@. c #BDC2C9",
"#. c #C3C3C6",
"$. c #C3C8C3",
"%. c #CECEC1",
"&. c #C3C7CE",
"*. c #C4CAC9",
"=. c #CECECB",
"-. c #CED1C0",
";. c #D1D3C3",
":. c #CBCCD3",
">. c #CDD4D2",
",. c #D6DCD7",
"<. c #DDDFD4",
"1. c #DBD5D8",
"2. c #E0DBDD",
"3. c #DAE2E2",
"4. c #E3EAE0",
"5. c #EEEEE9",
"6. c #F1F1EA",
"7. c #F8F8F4",
"8. c #FAFBF9",
/* pixels */
"A A A A A A Z A A A A A A A A A A A A A A A A A A Z A A A A A A ",
"A S A Z Z Z Z Z Z Z Z Z Z Z Z Z Z Z Z Z Z A Z Z Z Z Z Z Z Z S A ",
"A A S Z Z A A A A A A A A A Z A A A Z C A A A A A A A Z A A A A ",
"B B n n n n n n n n n B n n n n n n n n n n n n n n n n n n B B ",
"4 5 a s s s s s s s s s s s s s s s s s s s s s s s s s x a 5 4 ",
"# , F T T Y Y Y Y ! Y Y Y Y Y Y Y Y Y Y Y Y Y T Y Y Y ^ E G , & ",
"= r { 2.2.1.1.1.1.1.1.1.1.1.1.1.1.1.1.1.1.1.1.1.1.1.1.2.2.[ f = ",
"; k :.8.7.5.5.5.5.5.5.5.5.5.6.6.6.6.6.6.5.6.6.6.6.6.6.7.6.#.g ; ",
": l &.5.2.X.X.X.X.X.X.X.%.%.%.-.%.%.%.%.%.%.%.%.;.%.;.;.;.) r - ",
": h o.>.] K d R R K R R R P J J J J L J K J J J J J J R W L 9 = ",
": j o.*.E s e y u u d d d e 9 8 6 8 8 8 8 8 3 , 8 - 8 g P L q = ",
": l +.#.U y G U H d e u t 9 & O O + O # O O + + + o O 9 P P q - ",
": l O.+.L G  .=.` H y t w 9 & O o O O O O O O o O o o 9 P P q - ",
": k +.+.L L =.<...H y e e w - + O # + + * * $ * + o + q P P q - ",
": k o.@.L G ' ..T d e y e 9 - + + + * + * + + + + O O q P P q - ",
": k O.&.E d H K d e e e w 8 - $ + * + * + + + + + O O q P P q - ",
": j +.*.T e u s e y y w 8 & # + + + $ # * * + * + O O q P P q - ",
": k +.*.L 7 > 9 9 9 q 8 - O + * + + * * $ * $ + + O + q P P q - ",
": l O.@.F & O = - - - & * + @ * * * $ # * * * * + O + r P P q - ",
": l +.o.g .   o o X o o o o o o X o o o o o o o X X X 8 P P q - ",
": z @.@.h o . o O O O O O O o O O O o O O O o O O o o 9 P P q ; ",
"1 z @.>.~ k h l x z l l l x l l z x l l l l k l k k j I ( P q - ",
"; h @.3.>.O.O.+.+.O.O.O.+.+.+.+.@.@.O.+.O.O.+.O.O.@.+.#.] P 9 * ",
"+ f Q O.O.O.O.O.o.o.o.o.o.O.o. .O.o.O.O.o.o.o.o.O.+.O.{ T z - # ",
"+ ; f f j j l k k k k k k k k k k k k k k j k k l l k g q > # @ ",
"f 2 2 2 2 < $ + = 8 > - & & - 0 8 - & & - 6 6 = + $ < 1 2 2 3 3 ",
"v b b v v x % ; y H K g 7 7 d J J u 7 7 u H J t = % i b N N m B ",
"Z Z Z D Z v 1 0 E ;.X.} E E _ ` ` _ E / } %.;.! 0 1 b S D A A A ",
"S A A S Z v 1 f { 4.4.,.>.+.] ` ` ] $.>.,.4.4.{ f 1 b S D S A S ",
"A A A A Z N i x ~ O.+.O.+.| E L H ^ | O.O.O.O.~ x p B A A A C A ",
"A A A A A C V b x h h k x g q 8 0 9 h k k h h x c V C A A C A A ",
"A A A C A Z A m 5 ; ; : : - - * - - : : : ; ; 5 M C A A A A A C "
};
