/* XPM */
static char *result[] = {
/* columns rows colors chars-per-pixel */
"32 32 59 1 ",
"  c #46B38B",
". c #4DB78F",
"X c #52B991",
"o c #53B991",
"O c #54BA92",
"+ c #55BB93",
"@ c #58BC94",
"# c #5FBF97",
"$ c #63C29A",
"% c #64C29A",
"& c #65C29A",
"* c #65C39B",
"= c #66C29A",
"- c #66C39B",
"; c #68C39B",
": c #69C59D",
"> c #6AC59C",
", c #6BC59D",
"< c #6BC69D",
"1 c #6CC69D",
"2 c #6CC69E",
"3 c #6DC69E",
"4 c #6EC69E",
"5 c #6EC79E",
"6 c #6EC69F",
"7 c #6EC79F",
"8 c #6FC79F",
"9 c #6FC89F",
"0 c #6FC7A0",
"q c #6FC8A0",
"w c #70C8A0",
"e c #71C8A0",
"r c #71C9A1",
"t c #72C9A1",
"y c #72C9A2",
"u c #72CAA2",
"i c #73CAA2",
"p c #74C9A2",
"a c #74CAA2",
"s c #75CAA2",
"d c #74CAA3",
"f c #75CBA3",
"g c #76CBA3",
"h c #77CBA5",
"j c #78CDA6",
"k c #7ACDA6",
"l c #7BCDA7",
"z c #7ACEA7",
"x c #7BCEA7",
"c c #7CCEA8",
"v c #7DCEA8",
"b c #81D1AB",
"n c #88D4B0",
"m c #8BD5B2",
"M c #8CD6B3",
"N c #8DD7B3",
"B c #8ED7B4",
"V c #93D9B7",
"C c #9ADDBC",
/* pixels */
"wwwwwwwwwwwwwwwwwwwwwwwwwwwwwwww",
"wwwwwwwwwwwwwwwwwwwwwwwwwwwwwwww",
"wwwwwwwwwwwwwwwwwwwwwwwwwwwwwwww",
"wwwwwwwwwrttrwwwwwwwwwwwwwwwwwww",
"wwwwwwwwwettewwwwwwwwwwwwwwwwwww",
"wwwrttrrw2--2wrrttrwwwwwwwwwwwww",
"wwwerteur&OO&ruetrewwwwwwwwwwwww",
"wre,%&7ga#  #ag7&%,erwwwwwwwwwww",
"rut%Xo=gs#  #sg=oX%tuwwwwwwwwwww",
"rut&o.@;8&++&8;@.o&tuwwwwwwwwwww",
"wre7*@.O=7::7=O.@*7erwwwwwwwwwww",
"wwwii=oX%taat%Xo=iiwwwwwwwwwwwww",
"wwwti7&$,tiit,$&7itwwwwwwwwwwwww",
"wwwwwetrewwwwertewwwwwwwwwwwwwww",
"wwwwwrttrwwwwrttrwwwwwwwwwwwwwww",
"wwwwwwwwwwwwwwwwwwwww8558wwwwwww",
"wwwwwwwwwwwwwwwwwwwwwq77qwwwwwww",
"wwwwwwwwwwwwwww85580wdkkdw08558w",
"wwwwwwwwwwwwwwwq87q68xMMx86q78qw",
"wwwwwwwwwwwww8qfcxy>2bCCb2>yxcft",
"wwwwwwwwwwwww47cBNz><bCCb<>zNBca",
"wwwwwwwwwwwww47xNVnjrxmmxrjnVNxp",
"wwwwwwwwwwwww8qylnVMzyhhyzMVnlye",
"wwwwwwwwwwwwwww33zNBc7117cBNz338",
"wwwwwwwwwwwwwww73yxvf7337fvxy379",
"wwwwwwwwwwwwwwwwwq78qwwwwq87qwww",
"wwwwwwwwwwwwwwwww8558wwww8558www",
"wwwwwwwwwwwwwwwwwwwwwwwwwwwwwwww",
"wwwwwwwwwwwwwwwwwwwwwwwwwwwwwwww",
"wwwwwwwwwwwwwwwwwwwwwwwwwwwwwwww",
"wwwwwwwwwwwwwwwwwwwwwwwwwwwwwwww",
"wwwwwwwwwwwwwwwwwwwwwwwwwwwwwwww"
};
