/* XPM */
static char *result[] = {
/* columns rows colors chars-per-pixel */
"32 32 197 2 ",
"   c #020302",
".  c #0D0302",
"X  c #07070B",
"o  c #190708",
"O  c #080216",
"+  c #061D17",
"@  c #270709",
"#  c #350908",
"$  c #20110F",
"%  c #300F13",
"&  c #271A14",
"*  c #391617",
"=  c #311D15",
"-  c #13281F",
";  c #2A231B",
":  c #352419",
">  c #071D28",
",  c #241E28",
"<  c #0A2921",
"1  c #192826",
"2  c #1E3729",
"3  c #2C2725",
"4  c #263329",
"5  c #33362F",
"6  c #272536",
"7  c #26363B",
"8  c #5E1214",
"9  c #4D2E29",
"0  c #5D2825",
"q  c #463932",
"w  c #75292B",
"e  c #6D3632",
"r  c #2D4034",
"t  c #4A4836",
"y  c #654A37",
"u  c #1D1349",
"i  c #1C3B41",
"p  c #253351",
"a  c #312E62",
"s  c #343271",
"d  c #5D3E47",
"f  c #7F3740",
"g  c #2B5544",
"h  c #305947",
"j  c #28614D",
"k  c #31546B",
"l  c #376E60",
"z  c #575847",
"x  c #595853",
"c  c #694943",
"v  c #70504A",
"b  c #437159",
"n  c #79665C",
"m  c #7C695F",
"M  c #4D477A",
"N  c #6A4A77",
"B  c #55697B",
"V  c #79667B",
"C  c #8F1A1A",
"Z  c #922A29",
"A  c #90312E",
"S  c #8D3D3E",
"D  c #9B3736",
"F  c #A62524",
"G  c #AE3336",
"H  c #AA3F3F",
"J  c #CF3129",
"K  c #A7483E",
"L  c #C4433D",
"P  c #E14134",
"I  c #F55438",
"U  c #813841",
"Y  c #8E4542",
"T  c #994B46",
"R  c #955C48",
"E  c #8F5551",
"W  c #995751",
"Q  c #A84D42",
"!  c #A75146",
"~  c #91694F",
"^  c #85665A",
"/  c #A76656",
"(  c #AB745A",
")  c #B07258",
"_  c #965E61",
"`  c #BA5F61",
"'  c #8D7362",
"]  c #947B68",
"[  c #826E7C",
"{  c #9B7170",
"}  c #AD6D6A",
"|  c #B57462",
" . c #BB7D66",
".. c #D54942",
"X. c #D65750",
"o. c #E65A45",
"O. c #F55B43",
"+. c #D8615E",
"@. c #E26146",
"#. c #E1644A",
"$. c #F1614A",
"%. c #C56C71",
"&. c #E36D67",
"*. c #EE7261",
"=. c #FF7768",
"-. c #4E8A6D",
";. c #4F8C71",
":. c #459274",
">. c #4C9375",
",. c #539B7A",
"<. c #638369",
"1. c #6D8E74",
"2. c #788773",
"3. c #778974",
"4. c #79957C",
"5. c #59A17C",
"6. c #908872",
"7. c #B88A68",
"8. c #B4906F",
"9. c #AD8E7B",
"0. c #AF927D",
"q. c #D4866B",
"w. c #D0906F",
"e. c #D58D75",
"r. c #CB9874",
"t. c #E79677",
"y. c #EFA47C",
"u. c #3A4488",
"i. c #3C5595",
"p. c #5C538B",
"a. c #685A8A",
"s. c #646497",
"d. c #697594",
"f. c #586BA3",
"g. c #5177A6",
"h. c #6B6FA3",
"j. c #6974A5",
"k. c #827285",
"l. c #A67B83",
"z. c #6A9F83",
"x. c #73948C",
"c. c #55A281",
"v. c #5AA584",
"b. c #6BA789",
"n. c #6DB291",
"m. c #6EBC98",
"M. c #73B493",
"N. c #77B795",
"B. c #598EBC",
"V. c #6F84A9",
"C. c #7487A8",
"Z. c #6EC39C",
"A. c #68C69D",
"S. c #70C69F",
"D. c #6FCCA2",
"F. c #71C7A0",
"G. c #71CAA2",
"H. c #73D1A7",
"J. c #75D5AA",
"K. c #78D7AC",
"L. c #76DAAE",
"P. c #79D9AD",
"I. c #568FC0",
"U. c #958E90",
"Y. c #9292B0",
"T. c #AF92AA",
"R. c #BFB2BC",
"E. c #D48D96",
"W. c #D2949B",
"Q. c #C4A78F",
"!. c #ECA482",
"~. c #E8AE82",
"^. c #FAAC83",
"/. c #F7B188",
"(. c #FFBB8B",
"). c #E8B09C",
"_. c #FFBE91",
"`. c #D2ACAF",
"'. c #FEC499",
"]. c #FFD39B",
"[. c #D7C3A3",
"{. c #FFD8A3",
"}. c #FFECB8",
"|. c #AEB8D9",
" X c #EDBCC2",
".X c #D8C4C6",
"XX c #C1C9DF",
"oX c #D8C6D5",
"OX c #ECCBCB",
"+X c #FFDDC4",
"@X c #FCE3D0",
"#X c #FFF0D1",
"$X c #C7CDE3",
"%X c #CED7F1",
"&X c #F3DEE0",
"*X c #DCECFF",
"=X c #EFF0F8",
/* pixels */
"F.D.S.H.F.z.^ S U Y Y Y U T Y Y Y Y Y Y Y Y Y U S ^ x.S.H.S.S.G.",
"Z.D.D.S.N.6.W D Q ! ! Q K K K ! ! ! K K Q ! ! Q H W 6.N.S.D.S.D.",
"G.H.D.n.V E Q ..o.#.#.X.o.o.@.@.#.@.@.I @.#.o.o.L H E 2.n.D.H.D.",
"G.H.H.z.x w Z ..O.O.I $.*.*.$.I I #.*.*.$.O.O.O...D w c 5.H.H.D.",
"H.J.H.>.5 * w K ..P P +.E.E.+.J J +.E.E.+.P P ..Q w * 5 ,.H.J.G.",
"G.P.J.:.<   * A G G +.E.oXoXW.&.*.W.oXoXW.X.G D w *   < ;.J.P.G.",
"H.P.J.>.-   X * Z W W.oX=X=X&XOXOX&X=X=XoXT./ w 8 X   < >.J.P.H.",
"G.S.N.4.t ;   o y U.T.|.$X%X$XXXXX$X%XoX|.T.l.c o   ; t 3.N.G.G.",
"S.n.2.6.8.n & ; 6.`.k.f.s.h.j.j.h.h.h.s.f.Y.`.{ 3 ; n 7.6.2.n.Z.",
"m.z.n %.(.r.y y Q.OXY.p.p a p.a.s.p.a a M Y..XQ.z y r./.| ^ 5.M.",
"Z.4.n ) /.y.( { `.@X.Xa.6 6 V R.R.V 6 6 [ .X&X`.} ( ~./.| n z.N.",
"Z.b.2.6.r.w.q.e.).+X+X0.4 ; 8.#X#X9.; 3 9.+X+X).w.q.e.r.6.2.n.S.",
"S.Z.m.4.] | q.t.~.'.].8.: : 7.}.}.8.; : 8.{._.!.t.q.| ] 6.n.A.D.",
"S.H.H.n.3.'  .e.t./.'.7.y y r.].].r.y y r.(.^.t.e. .' 1.n.H.H.D.",
"S.H.H.A.n.1.] | q.y.y.w.7.7.y.].].y.7.( q.y.y.q.( ' 4.n.A.H.D.S.",
"S.S.A.L.L.b.x y R ) %.q.t.y.'.'.'.'./.t.q.| ) R y x b.L.L.S.S.D.",
"F.Z.F.L.L.v.r $ % 9 v ) t.y.^.y.y.y.y.y.) Y 9 & $ 7 c.P.K.F.F.F.",
"G.H.H.A.c.l i < X o w T / ~ / R R ~ ~ / T 0 o X > i l ,.A.D.D.G.",
"G.L.H.,.g i k k > @ C D 0 : = = = = : 0 D C @ > k k g g ,.J.K.G.",
"F.F.M.<.t x C.v.7 # C F 8 $ 6 6 6 3 % 8 F C # 7 x.C.x t <.N.G.G.",
"S.n.2.^ ( r.[.0.5 # C F F f a.C.C.V f F G C # 5 U.[.Q.( ' 2.M.Z.",
"m.b.m / y.].{.7.: @ U X.O.&.`.%X%X`.&.O.X.S @ : 7.].].!.) m z.m.",
"m.b.m / t.'.y.) * , k.E.=.=. X*X*XOX=.=.E.a.6 = ) y._.t./ m b.m.",
"Z.M.3.^ ~ ) ) R p k j.l.%.%.T.|.|.T.%.%.l.j.k q y 7.) W ^ 2.M.F.",
"F.G.N.<.q * : r B j.f.p.N N p.s.f.a.N N p.f.g.B t : : q <.N.G.G.",
"G.K.H.v.h <   6 B C.g.i.i.i.u.s s u.i.i.i.g.C.a.3   + h v.J.K.G.",
"G.H.H.A.c.h + o d d.C.I.B.g.u.s s u.g.I.B.V.k.d o + j c.D.G.J.F.",
"F.F.D.P.L.>.- o 0 W T.Y.Y.d.k u u s d.Y.Y.U._ 0 o - :.J.L.D.F.F.",
"G.S.S.P.L.>.1 o 0 W ` ` { v 6 O O 6 v { ` ` / 0 o 1 >.P.P.D.S.S.",
"D.S.F.J.G.c.h 4 q e A Z w 9 4 4 4 4 9 w Z A e q 4 h c.H.H.F.S.F.",
"S.S.G.G.G.Z.v.b 5 & # # @ 3 b 5.,.b 3 # # # & 4 b v.Z.G.G.S.D.S.",
"S.G.S.G.S.H.S.>.4 . . . . 4 -.G.G.-.2 . . . . 4 >.S.H.G.F.S.D.F."
};
