/* XPM */
static char *result[] = {
/* columns rows colors chars-per-pixel */
"32 32 217 2 ",
"   c #020202",
".  c #0A0306",
"X  c #1B0707",
"o  c #020515",
"O  c #00031C",
"+  c #110B1B",
"@  c #2A0808",
"#  c #380B09",
"$  c #2E1014",
"%  c #371617",
"&  c #331D15",
"*  c #122319",
"=  c #28231A",
"-  c #32261B",
";  c #0A102D",
":  c #241D29",
">  c #0A2A21",
",  c #152B26",
"<  c #1B3326",
"1  c #0D2033",
"2  c #2B2821",
"3  c #31242F",
"4  c #273228",
"5  c #282636",
"6  c #263839",
"7  c #313534",
"8  c #5D191B",
"9  c #601517",
"0  c #4A2926",
"q  c #53332F",
"w  c #7A2427",
"e  c #742A2B",
"r  c #702F2E",
"t  c #752F30",
"y  c #654A37",
"u  c #7A443A",
"i  c #1D1E42",
"p  c #141A55",
"a  c #18245B",
"s  c #342E4D",
"d  c #24245E",
"f  c #1D346A",
"g  c #312E62",
"h  c #35356E",
"j  c #7D3844",
"k  c #553D70",
"l  c #2D5845",
"z  c #2F4C54",
"x  c #39644E",
"c  c #37516D",
"v  c #5C4D43",
"b  c #694943",
"n  c #684C4E",
"m  c #7D4B46",
"M  c #7B544F",
"N  c #775D56",
"B  c #4A6A58",
"V  c #515C6F",
"C  c #4D477A",
"Z  c #6E5073",
"A  c #787C6B",
"S  c #78667B",
"D  c #921F1C",
"F  c #96231D",
"G  c #8E2B28",
"H  c #8D3D3E",
"J  c #9B3736",
"K  c #A72727",
"L  c #A42E32",
"P  c #AA3F3F",
"I  c #B73A37",
"U  c #CE332B",
"Y  c #A7483E",
"T  c #C4433D",
"R  c #E24134",
"E  c #F25338",
"W  c #8E4542",
"Q  c #8D494C",
"!  c #984944",
"~  c #975946",
"^  c #864657",
"/  c #8A5A53",
"(  c #945A55",
")  c #A94E42",
"_  c #A75146",
"`  c #AB584E",
"'  c #AE4F52",
"]  c #8F664A",
"[  c #886258",
"{  c #986A58",
"}  c #A7664B",
"|  c #A26858",
" . c #B76758",
".. c #AA755B",
"X. c #B6785E",
"o. c #9A7362",
"O. c #99706F",
"+. c #A96E6B",
"@. c #BC7962",
"#. c #D54942",
"$. c #D5554E",
"%. c #E45B44",
"&. c #F55B43",
"*. c #D8615E",
"=. c #E26146",
"-. c #E1644A",
";. c #F1614A",
":. c #D0776A",
">. c #E36D68",
",. c #EE7261",
"<. c #FF7566",
"1. c #498B6E",
"2. c #538C6E",
"3. c #4B8C70",
"4. c #499374",
"5. c #549878",
"6. c #6F8971",
"7. c #7A8675",
"8. c #6A967D",
"9. c #54A17D",
"0. c #848976",
"q. c #8B8F7A",
"w. c #B88969",
"e. c #B4906F",
"r. c #AD8E7B",
"t. c #AF927D",
"y. c #CD876C",
"u. c #D6866A",
"i. c #D3906D",
"p. c #CE9273",
"a. c #CD9E73",
"s. c #E69576",
"d. c #EC9C79",
"f. c #F0A57C",
"g. c #3A3F85",
"h. c #3C5192",
"j. c #3B648C",
"k. c #404F90",
"l. c #695A88",
"z. c #496A93",
"x. c #636296",
"c. c #727096",
"v. c #5869A2",
"b. c #5371A8",
"n. c #6B6FA3",
"m. c #6A73A7",
"M. c #887183",
"N. c #A67B83",
"B. c #CC7B81",
"V. c #548492",
"C. c #6A9D81",
"Z. c #779F84",
"A. c #7C8E96",
"S. c #5BA584",
"D. c #6DAC8D",
"F. c #71AC8D",
"G. c #62A697",
"H. c #6EBA97",
"J. c #68BE97",
"K. c #74B291",
"L. c #79B696",
"P. c #6884AA",
"I. c #7587A5",
"U. c #6EC59D",
"Y. c #70C59E",
"T. c #6FCBA2",
"R. c #72C7A0",
"E. c #71CAA1",
"W. c #7BCAA6",
"Q. c #6FD1A6",
"!. c #6FD7AB",
"~. c #74D1A6",
"^. c #75D5AA",
"/. c #79D5AC",
"(. c #79D9AD",
"). c #5690C0",
"_. c #9F8192",
"`. c #B19A84",
"'. c #928FAF",
"]. c #B39AB0",
"[. c #B5A5BD",
"{. c #BFB2BC",
"}. c #D18E97",
"|. c #CE9091",
" X c #C6A994",
".X c #ECA582",
"XX c #E3AB83",
"oX c #F7A982",
"OX c #FBAD85",
"+X c #E9B18F",
"@X c #FFBB8A",
"#X c #FFBD90",
"$X c #D3ADB0",
"%X c #95C4A7",
"&X c #89DCB5",
"*X c #FEC499",
"=X c #FFD39A",
"-X c #D5C6A1",
";X c #FFD7A4",
":X c #FFECB8",
">X c #839EC4",
",X c #ADB6D7",
"<X c #EDBCC2",
"1X c #D8C4C6",
"2X c #C1C9DF",
"3X c #D8C6D5",
"4X c #E7C7CA",
"5X c #F5CCCB",
"6X c #FFDDC4",
"7X c #FFF0D1",
"8X c #C7CDE3",
"9X c #CFD1E5",
"0X c #CCDDFC",
"qX c #F3DEE0",
"wX c #DCECFF",
"eX c #EDF0F8",
"rX c #F0F0F8",
/* pixels */
"R.T.U.E.R.F./ H H W W W W H W W W W W W W W W H H [ F.Y.E.Y.E.E.",
"U.T.T.T.L.0.( Y Y _ _ ) Y Y ) _ _ ) Y Y ) _ _ ) J ( 0.L.Y.Y.E.R.",
"T.Q.T.K.A / P U %.-.-.$.=.=.=.-.=.=.=.=.;.-.-.$.T ) Q 7.K.T.~.T.",
"E.~.Q.C.n e J #.&.&.&.&.,.,.&.E E %.,.,.;.E &.&.#.L e n D.Q.~.E.",
"E.^.~.5.7 % w ) #.R R *.}.}.*.U U *.}.}.*.U R #.) w % 7 2.T.~.~.",
"~.(.!.4.>   % t J I *.}.3X4X}.>.,.}.3X3X}.*.I L t %   > 4.!.(.E.",
"E.(.~.4.>   X % e ` }.3XeXeXqX5X5XqXrXrX3X}.( e % X   > 4.^.(.~.",
"E.E.K.6.v =   X y _.[.,X8X9X8X2X8X8X9X8X,X[.N.b X   = v 6.K.R.R.",
"Y.F.A o.w.] * 2 O.{.'.x.n.m.m.m.m.n.n.n.v.'.$XO.2 = N w.o.A D.U.",
"H.8.^  .OXa.y b  X4X'.k d g C x.x.C g d k '.4X Xb y a.oX ./ 8.K.",
"H.8.M  .OXXX..O.$XqX1XS 5 5 S {.{.M.5 5 c.1XqX$Xo...+Xf. .m 8.H.",
"H.D.A o.y.i.u.p.+X6X6X`.- = r.7X7Xr.= 2 r.:X6X+Xp.y.s.p.o.A D.U.",
"Y.U.K.7.o. .u.s..X*X;Xe.- - e.:X:Xw.= - e.;X*X.Xs.u...o.7.K.U.Y.",
"T.Q.Q.D.6.[ @.u.d.OX#Xw.y y p.=X;Xp.y y w.@XOXd.u. .W N D.!.!.Q.",
"Y.~.Q.U.D.6.{ X.u.d.f.i.X.w.XX=X=Xf.w...i.f.f.y. .W t N D.!.!.Q.",
"Y.T.Y.!.~.8.v r ~ ..@.u.d.OX#X*X*X#XOXd.y.@...( M j Q { 0.K.U.U.",
"T.Y.Y.!.^.5.7 X & 0 m | s.f.oXoXf.oXf.s. .u 0 3 s Z +.@.{ A D.J.",
"Y.T.Y.(./.S.z     X e ! { { } ~ ] } } { ! 8 @ o a l.y.:.) M C.H.",
"Y.T.U.Q.^.G.c ; o @ G J r & & & & & = q J w @ O p l.`.:._ M Z.H.",
"T.T.U.U.5.V.j.f O @ F K 8 X : 5 5 : @ 9 K F # O a Z +.:.+.0.K.H.",
"~.~.~.5.l z z.j.1 # D U L j S I.I.S j K U D # ; d k ^ | `.%XW.T.",
"~.~.~.2.7 7 A.'.B 8 G U R >.$X0X0X$X>.#.$.H & o p s N q.%X&X(.E.",
"T.^.~.8.y m t.-X X..~ I &.<.<XwXwX<X<.<.B.M.5 . o 5 A.%X&X(.E.E.",
"T.Q.Y.8./ ` d.=X=XXXO.^ ' B.].,X,X].:.:.,X'.i . * x L.&X&XU.T.R.",
"T.Q.T.8.[ ` u.@X@X|.S k k Z l.x.x.l.Z c.>Xb.6 * x 9.~.(.~.Y.Y.U.",
"T.Q.T.K.7.] ~ } } M s i p d h g.h.h.h.b.P.V : < 2./.(.Y.Y.Y.U.T.",
"T.T.T.E.K.6.q = - $ + O O ; d k.b.).).P.S q X < 5.(.(.U.U.E.T.E.",
"Y.Y.Y.^.Q.S.l * , < < < < 1 i h m.'.'._.{ 8 X * 3.~.(.Y.E.Y.E.U.",
"Y.T.Y.~.Q.U.9.1.1.1.3.5.5.x , : n O.+.$.! 8 X , 3.~.^.T.T.U.E.E.",
"R.Y.T.R.Y.U.T.Q.~.~.~.(.!.S.l = 0 e G G t 0 4 l 9.~.~.Y.Y.E.T.Y.",
"T.Y.T.U.R.E.Q.^./././.(.(.E.9.B - @ # $ $ 4 B S.U.E.~.Y.E.Y.Y.E.",
"Y.T.R.Y.T.T.E.~.~.E.E.^.E.(.U.2.4 . . . . 4 4.U.~.E.E.E.U.E.E.U."
};
