/* XPM */
static char *result[] = {
/* columns rows colors chars-per-pixel */
"32 32 220 2 ",
"   c #020202",
".  c #0A0306",
"X  c #1B0707",
"o  c #020515",
"O  c #00031C",
"+  c #110B1B",
"@  c #2A0808",
"#  c #380B09",
"$  c #2E1014",
"%  c #371617",
"&  c #331D15",
"*  c #122319",
"=  c #28231A",
"-  c #32261B",
";  c #010A22",
":  c #0F1332",
">  c #241D29",
",  c #0A2A21",
"<  c #152B26",
"1  c #1B3326",
"2  c #0D2033",
"3  c #2B2821",
"4  c #31242F",
"5  c #243128",
"6  c #272635",
"7  c #263839",
"8  c #373733",
"9  c #5D191B",
"0  c #601517",
"q  c #4A2926",
"w  c #56322D",
"e  c #7A2427",
"r  c #742A2B",
"t  c #702F2E",
"y  c #752F30",
"u  c #53503F",
"i  c #654A37",
"p  c #7A443A",
"a  c #1D1E42",
"s  c #141A55",
"d  c #18245B",
"f  c #332E4C",
"g  c #24245E",
"h  c #1D346A",
"j  c #312E62",
"k  c #35356E",
"l  c #7D3844",
"z  c #563D71",
"x  c #2E5946",
"c  c #32564C",
"v  c #37664F",
"b  c #37516D",
"n  c #674943",
"m  c #7D4B46",
"M  c #7B534F",
"N  c #674C50",
"B  c #795A54",
"V  c #4A6A58",
"C  c #5A6457",
"Z  c #515C6F",
"A  c #4D477A",
"S  c #705076",
"D  c #767B6B",
"F  c #797D6C",
"G  c #78667B",
"H  c #921F1C",
"J  c #96231D",
"K  c #8E2B28",
"L  c #8D3D3E",
"P  c #9B3736",
"I  c #A72727",
"U  c #A42E32",
"Y  c #AA3F3F",
"T  c #B73A37",
"R  c #CE332B",
"E  c #A7483E",
"W  c #C4433D",
"Q  c #E24134",
"!  c #F24F34",
"~  c #F2563B",
"^  c #8E4542",
"/  c #8D494C",
"(  c #984944",
")  c #975946",
"_  c #874758",
"`  c #895A53",
"'  c #945A55",
"]  c #A64C43",
"[  c #A75146",
"{  c #AC5449",
"}  c #AE4F52",
"|  c #8F664A",
" . c #886258",
".. c #986A58",
"X. c #A7664B",
"o. c #A06352",
"O. c #B86556",
"+. c #B46B5A",
"@. c #AA755B",
"#. c #B6785E",
"$. c #9A7362",
"%. c #99706F",
"&. c #AA6E6B",
"*. c #BC7962",
"=. c #D54942",
"-. c #D5554E",
";. c #E45B44",
":. c #F55B43",
">. c #D8615E",
",. c #E26146",
"<. c #E1644A",
"1. c #F1614A",
"2. c #D0776A",
"3. c #E36D68",
"4. c #EE7261",
"5. c #FF7566",
"6. c #498B6E",
"7. c #4B8C70",
"8. c #499374",
"9. c #539878",
"0. c #718770",
"q. c #7C8673",
"w. c #6C977E",
"e. c #848E77",
"r. c #B88969",
"t. c #B4906F",
"y. c #AD8E7B",
"u. c #AF927D",
"i. c #CD876C",
"p. c #D6866A",
"a. c #D3906D",
"s. c #CE9273",
"d. c #CD9E73",
"f. c #FF8472",
"g. c #E69576",
"h. c #EC9C79",
"j. c #F0A57C",
"k. c #3A3F85",
"l. c #3C5192",
"z. c #3B648C",
"x. c #674F80",
"c. c #695A88",
"v. c #476A93",
"b. c #636296",
"n. c #727096",
"m. c #5869A2",
"M. c #5371A8",
"N. c #6B6FA3",
"B. c #6A73A7",
"V. c #887183",
"C. c #A67B83",
"Z. c #CC7B81",
"A. c #548492",
"S. c #669E81",
"D. c #6E9B81",
"F. c #7A8E95",
"G. c #5AA683",
"H. c #5AA584",
"J. c #6DAC8D",
"K. c #71AC8D",
"L. c #62A697",
"P. c #6EBA97",
"I. c #69BF9A",
"U. c #74B291",
"Y. c #79B694",
"T. c #6884AA",
"R. c #7587A5",
"E. c #6EC49D",
"W. c #6CCA9F",
"Q. c #71C69D",
"!. c #6FC7A0",
"~. c #6FCBA2",
"^. c #72C7A0",
"/. c #71CAA1",
"(. c #6FD1A6",
"). c #6FD7AB",
"_. c #73D1A6",
"`. c #75D5AA",
"'. c #7BD5AB",
"]. c #79D9AD",
"[. c #5690C0",
"{. c #9F8192",
"}. c #928FAF",
"|. c #B39AB0",
" X c #B5A5BD",
".X c #BFB2BC",
"XX c #D18E97",
"oX c #CE9091",
"OX c #C6A994",
"+X c #ECA582",
"@X c #E3AB83",
"#X c #F7A982",
"$X c #FBAD85",
"%X c #E9B18F",
"&X c #FFBB8A",
"*X c #FFBD90",
"=X c #D3ADB0",
"-X c #8ADCB5",
";X c #FEC499",
":X c #FFD39A",
">X c #D5C6A1",
",X c #FFD7A4",
"<X c #FFECB8",
"1X c #839EC4",
"2X c #ADB6D7",
"3X c #EDBCC2",
"4X c #D8C4C6",
"5X c #C1C9DF",
"6X c #D8C6D5",
"7X c #E7C7CA",
"8X c #F5CCCB",
"9X c #FFDDC4",
"0X c #FFF0D1",
"qX c #C7CDE3",
"wX c #CFD1E5",
"eX c #CCDDFC",
"rX c #F3DEE0",
"tX c #DCECFF",
"yX c #EDF0F8",
"uX c #F0F0F8",
/* pixels */
"^.!.Q./.^.K.` L L ^ ^ ^ ^ ^ ^ ^ ^ ^ ^ ^ ^ ^ ^ L L ` K.Q.^.^.^.^.",
"~.!.W.Q.Y.e.' Y E [ [ ] E E E [ { [ E E ] { [ ] P ' e.Y.Q.^.~.^.",
"~.(.~.J.q./ Y W -.,.<.<.;.;.,.<.<.<.,.~ ,.<.<.;.=.Y / 0.U.~.(.~.",
"/._.(.J.N r U =.:.:.:.:.4.4.1.! ! ,.4.4.1.~ :.:.=.P r N J.(._./.",
"/.)._.9.8 $ e ] =.Q Q >.XXXX>.R R >.oXoX>.Q R =.] e $ 8 7._.`./.",
"_.]._.8.,   q y U T >.XX6X7XXX3.4.XX6X6XXX-.T P y %   , 8._.]._.",
"_.].`.8.,   . # r ' XX6XyXuXrX8X8XrXuXuX6XXX' r 9     , 8.`.]._.",
"^.^.U.0.u = . X n &.2X2XqXwXqX5XqXqXwXqX2X2XC.l X   = u 0.U.^.^.",
"E.K.F $.r.B = - e.=XV.M.N.B.B.B.B.B.N.N.m.}.=X%.3 = | r.$.D J.I.",
"P.w.` O.$Xd.i i OX7X}.k.g j A b.b.A j g A }.7XOXn i d.$XO.M w.P.",
"J.w.M O.j.@X@.$.>XrX7XV.6 6 G .X=Xn.6 6 G 4XrX=X$.@.%X$XO.M w.P.",
"I.J.D $.s.g.i.oX%X9X9Xy.- = y.0X0Xy.- 3 u.9X9X%Xs.i.a.i.$.F K.I.",
"!.!.U.q.$.+.2.g.+X;X,Xt.- - t.<X<Xt.= - t.,X;X+Xg.2.+...q.U.W.!.",
"~.).).J.B ^ O.p.+X$X*Xr.i i s.:X:Xd.i i r.&X$Xh.a.*. .D J.(.(.~.",
"~.).).J.B y ( +.2.j.j.a.#.r.@X:X:Xj.r.@.a.j.h.i.+...q.J.~.(././.",
"!.!.U.e.$.M l M ' +.*.i.h.$X*X;X;X*Xj.h.i.*.@.) t N S.(.).!.!.^.",
"Q.K.0.@.+.&.S j 4 q p +.g.j.#Xj.j.#Xj.g.+.m q & $ 7 9.).].!.!.!.",
"P.w.M E 2.s.c.s o X t ( o...| ) | X...o.( 9 X   o 7 H.].].!.!.!.",
"P.w.M [ 2.oXc.s o @ H K w - & & & & - w P K @ . : b L.]._.E.W.^.",
"E.U.q.o.O.&.x.d O # J I 0 $ > 6 6 3 @ 0 I H @ o h z.A.9.E.-X_./.",
"Q.W.U.e..._ A d ; # H T I y c.}.R.G l I R H @ 2 v.v.c x K.-X-X_.",
"/.(._.Y.q.B f a o % L -.:.3.=XeXeX=X3.Q R K w C F.n.8 8 w.-X-X_.",
"W._.(.Q.U.V 6 o   4 V.XX5.f.3XtXtX8X5.;.T ( @.OX>XOXM n D.'.'.Q.",
"Q.W.Q.`.`.G.x * . f R. XZ.2.{.2X2X|.Z.} _ %.@X,X:Xg.{ ` w.~._./.",
"^.^.^._.(.W.G.v * 7 M.1Xn.S S m.b.c.S z z G oX&Xj.g.[ B K.~.(.~.",
"/.^.^.^.!.].].7.1 > Z T.M.l.l.l.k.k g s s f m X.X.) | q.K.!.(.~.",
"^.W.Q.W.Q.].].9.1 X w n.T.[.[.M.l.g : O o + $ - & q 0.P.^./.~.W.",
"!./.^./.W.`._.6.* X 9 ' {.}.}.T.k a < 1 1 1 1 < 1 x 9.).`.!.^.Q.",
"^.Q.^.~.Q.'._.7.< X 9 ] -.&.%.N > < v 9.9.7.7.6.6.9.E._._.W.^.^.",
"~.~.!.Q./.`.`.9.c 5 q t K K e q > c H.'.]._._._.).~.~.!.^.^.^.!.",
"W.Q.^.^.^././.W.H.V 3 @ $ # @ - V H./.].].'.`.`._._./.^.Q./.~.Q.",
"^.^.W./.!./.Q._.E.9.5 . . . . 1 6.E.`._._._./._./._././.!.!.Q.~."
};
