/* XPM */
static char *result[] = {
/* columns rows colors chars-per-pixel */
"32 32 222 2 ",
"   c #010000",
".  c #0C0403",
"X  c #0A0908",
"o  c #150A0B",
"O  c #180808",
"+  c #1D1B01",
"@  c #080916",
"#  c #0D1417",
"$  c #1C1612",
"%  c #310E0C",
"&  c #27170B",
"*  c #250D11",
"=  c #241511",
"-  c #271B15",
";  c #39191A",
":  c #0F231E",
">  c #14251E",
",  c #34280B",
"<  c #322617",
"1  c #332E19",
"2  c #0A0D25",
"3  c #151428",
"4  c #2F142A",
"5  c #152B23",
"6  c #153027",
"7  c #2C2E2F",
"8  c #372D23",
"9  c #383826",
"0  c #343836",
"q  c #4F1516",
"w  c #422F17",
"e  c #601920",
"r  c #472824",
"t  c #56292C",
"y  c #5A3929",
"u  c #4F3230",
"i  c #772626",
"p  c #712F2E",
"a  c #733735",
"s  c #3D4627",
"d  c #645019",
"f  c #5B5C2A",
"g  c #684838",
"h  c #6E4E3C",
"j  c #181D43",
"k  c #35234B",
"l  c #2C2C62",
"z  c #3C2862",
"x  c #353468",
"c  c #50364E",
"v  c #48396E",
"b  c #2C5748",
"n  c #325D4A",
"m  c #346552",
"M  c #3D4676",
"N  c #5A474B",
"B  c #79554D",
"V  c #764C53",
"C  c #476B55",
"Z  c #467359",
"A  c #7B6250",
"S  c #4C487E",
"D  c #564579",
"F  c #7E5661",
"G  c #67567C",
"H  c #4E736C",
"J  c #777C69",
"K  c #A31E1F",
"L  c #8E2224",
"P  c #88393A",
"I  c #95393A",
"U  c #AF2D2D",
"Y  c #B8282B",
"T  c #A63536",
"R  c #B93A3B",
"E  c #C52F30",
"W  c #C63537",
"Q  c #C83638",
"!  c #CB3A3B",
"~  c #D73D38",
"^  c #88711F",
"/  c #884939",
"(  c #885538",
")  c #8C7329",
"_  c #C2453E",
"`  c #D8443C",
"'  c #DD493E",
"]  c #F75437",
"[  c #A83B40",
"{  c #8E4643",
"}  c #8A4B48",
"|  c #8D4F4E",
" . c #9A4342",
".. c #9A4547",
"X. c #8A5F55",
"o. c #945956",
"O. c #A64A45",
"+. c #B04242",
"@. c #BD4140",
"#. c #A75045",
"$. c #AA564B",
"%. c #B25359",
"&. c #99664C",
"*. c #846158",
"=. c #966C5C",
"-. c #A66656",
";. c #B46A59",
":. c #B4755C",
">. c #8A5766",
",. c #886978",
"<. c #8E7272",
"1. c #A56D69",
"2. c #B67D68",
"3. c #A97271",
"4. c #C54141",
"5. c #D1544E",
"6. c #E65A42",
"7. c #E26349",
"8. c #F56046",
"9. c #C35B64",
"0. c #D37064",
"q. c #EB7F6C",
"w. c #43876E",
"e. c #51896E",
"r. c #468970",
"t. c #4D9377",
"y. c #539577",
"u. c #7A826D",
"i. c #778873",
"p. c #699D7F",
"a. c #9D872F",
"s. c #AC8F3A",
"d. c #928D7B",
"f. c #B78566",
"g. c #B19174",
"h. c #D19D4B",
"j. c #CF8A5E",
"k. c #D4B849",
"l. c #C58567",
"z. c #D5896C",
"x. c #D6986A",
"c. c #C68E70",
"v. c #D89873",
"b. c #E3936D",
"n. c #E29572",
"m. c #E89A76",
"M. c #D7A67B",
"N. c #EBA47B",
"B. c #F3CC4D",
"V. c #FDEB5B",
"C. c #F3D166",
"Z. c #5C4E81",
"A. c #675989",
"S. c #4B7488",
"D. c #676698",
"F. c #6A739C",
"G. c #5C67A4",
"H. c #6B6CA2",
"J. c #7472A5",
"K. c #9D788E",
"L. c #B27D90",
"P. c #CA7E89",
"I. c #539D81",
"U. c #779D84",
"Y. c #648E97",
"T. c #5BA685",
"R. c #58A686",
"E. c #5CA794",
"W. c #68AA8A",
"Q. c #74A686",
"!. c #69AC93",
"~. c #67B795",
"^. c #6ABD9B",
"/. c #73B392",
"(. c #72BF9A",
"). c #6CC49D",
"_. c #71C69E",
"`. c #72CA9C",
"'. c #6FC7A0",
"]. c #6ECCA3",
"[. c #70C7A0",
"{. c #70C9A1",
"}. c #6FD1A6",
"|. c #73D1A4",
" X c #76D4A9",
".X c #79D6AB",
"XX c #7AD9AE",
"oX c #998897",
"OX c #AE8A8C",
"+X c #9C88A3",
"@X c #8E90B8",
"#X c #B99CA6",
"$X c #AA9DBE",
"%X c #BFB0B9",
"&X c #C3868A",
"*X c #D79D89",
"=X c #DBA99C",
"-X c #ECAE8B",
";X c #F6AA83",
":X c #F5BC8D",
">X c #FFBC8E",
",X c #FFBE98",
"<X c #D3AFAE",
"1X c #E2B5AE",
"2X c #FFC093",
"3X c #FFD39A",
"4X c #FFDDBE",
"5X c #FFECB8",
"6X c #AAA5C6",
"7X c #AEB4D7",
"8X c #CBB5C8",
"9X c #CBBED1",
"0X c #B6C2E1",
"qX c #C3C5DA",
"wX c #E6CCCC",
"eX c #FFF3D1",
"rX c #CECCE2",
"tX c #D1D2E5",
"yX c #D4DCF4",
"uX c #E1DFED",
"iX c #EDEFF9",
"pX c #EEF3FE",
/* pixels */
"[.[.[.{.{.|.`.Q.<.| ..| { {  .{ { { { { { { { { { P P A Q.[.}.].",
"[.[.[.{.|.`./.d.<.3.3.1.$.#.#.#.#.#.#.#.#.O.#.O. .P P B i./.[.[.",
"[.`.'.}.|.Q.u.<.<XwXwX1Xz.6.6.7.7.7.7.7.7.7.7.6.4.T { V X.u./.(.",
"{.|.|.].!.H c ,.8XiXiXwXq.] ] 8.8.8.8.8.8.8.8.8.` R T I P >.Q.(.",
"'.|.|.!.S.v z A.6XyXyX8X0.~ ~ ` ' ' 6.` ' ' ' ~ ! ! W T I A Q._.",
"'.^.!.Y.Y.H.H.@X9XyXyX8XP.5.Q W W Q Q Q Q Q Q Q ~ ~ _ T p V W.^.",
"^.E.S.D.6XrXrXtXuXpXiXyX8XP.9.E E W W Q Q W W Q ! 4.+.i ; 0 y.~.",
"^.E.S.F.6XrXrXtXqXqXqX0X7XK...U U R R [ @.@.@.R U I a ; . 6 e.~.",
").^.!.Y.Y.J.J.J.J.D.H.H.G.A.V I I /  ... .O...P q * = o   6 t.~.",
"'.|.].~.S.M v v Z.D.A.S x c F 1.-.} a t t t t ; X         5 e.~.",
"{.{.|.].E.H c >.oX<X%XA.7 k d.=X*X$.r $ o o o X           6 y.~.",
"[.'.'.}.|.p.| -.=XeXeXg.< 8 OX4X2X&.=   - 8 1 & .     @ > n p.).",
"[.[.[. X}.Q.*.-.;X5X5Xf.< 1 g.4X,X&.- $ B g.f.h =     > m W.`.].",
"[.{.[.}.}.W.u.=.l.-X:Xc.h g f.:X;X-.y h M.3X2Xf.g = . 6 y.XXXX|.",
"{.[.{.{.`.)./.i.=.:.b.v.f.2.x.m.m.l.:.g.:X3X>Xv.-.t O > y.XXXX{.",
"'.{.'.{.`.}.].!.J *.;.0.l.z.v.n.b.b.m.N.>X;Xf.o.} y 0 m R.|. X{.",
"'.'.[.'.'.|.}.]./.i.*...$.:.0.n.b.m.m.N.;Xl.g < ; 0 w.~.).`.].].",
"[.`.{.{.'.'.'.}.{./.i.V a { 1.c.*X=X=X*Xf.h w , 1 s m R.`. X|.{.",
"{.[.{.[.'.[.[.{. X].(.i.B P { 3.#XqX9XoXN , d a.s.a.s m R. X X{.",
"'.{.'.{.[.[.`.].[.)./.U.,.o...%.K.$X$XG 3 + ^ B.V.k.f f Z T.).{.",
"{.'.{.[.'.'.{.}.].Q.i.<.+XOX9.[ ..<.>.c X + ^ B.V.V.k.) s b I.~.",
"[.{.`.{.'.`.[.}.{.Q.*.>.L.L.9.[ $.;.-.B r < d s.k.C.C.s., : w.~.",
"[.{.'.'.[.{.'.}.].W.*.O.%.9.O.$.0.M.M.l.| r & y &.x.x.( & : w.E.",
"{.'.{.[.{.'.{.|.].p.N L Y Y p / M.3X3XN.&.; . & ( j.j./ & : w.~.",
"'.{.{.[.{.`.'. X|.t.0 q K L q u f.>X2Xl.y o   & ) h.h.^ & 5 r.~.",
"{.[.'.{.'.{.'. X|.R.n 9 i e 4 7 F &Xc.>.7 @ X & d ^ ^ d 1 b R.~.",
"'.'.'.[.[.{.'.{.[.).R.C 1 * j z S G G v x j @ . & , , 9 Z T.^.).",
"{.`.[.{.{.{.{.{.[.).T.C 8 4 k l l l v D D z @   # 6 6 b T.XX X].",
"[.{.'.`.[.{.[.|.|.R.n 8 i i ; 2 2 3 c >.>.t @ # m t.t.R.)..X|.{.",
"{.'.'.{.{.[.[. X Xy.b 8 i i %     O r p a r 7 b R.XXXX{.{.[.[.[.",
"[.{.{.[.{.[.[.|.{.).y.C r % O       O % & 8 Z T.]..XXX X{.[.[.{.",
"{.'.[.{.[.[.[.[.[.|.).e.7 .         . . X 7 e.'. X].|.|.{.[.{.[."
};
