/* XPM */
static char *result[] = {
/* columns rows colors chars-per-pixel */
"32 32 222 2 ",
"   c #010000",
".  c #0D0808",
"X  c #170707",
"o  c #12110D",
"O  c #1B0E1E",
"+  c #310C0C",
"@  c #27150A",
"#  c #251813",
"$  c #381B19",
"%  c #0F241F",
"&  c #14241D",
"*  c #342C14",
"=  c #34261D",
"-  c #0E142E",
";  c #331726",
":  c #152A23",
">  c #152C24",
",  c #183228",
"<  c #182935",
"1  c #2D2B23",
"2  c #28282A",
"3  c #322F29",
"4  c #343836",
"5  c #410D10",
"6  c #4D1E1D",
"7  c #6A1616",
"8  c #452813",
"9  c #75221E",
"0  c #411D22",
"q  c #472923",
"w  c #56292C",
"e  c #563626",
"r  c #592839",
"t  c #5B3935",
"y  c #702E2E",
"u  c #7C2833",
"i  c #773638",
"p  c #3D4627",
"a  c #674E16",
"s  c #5B5C2A",
"d  c #684838",
"f  c #744937",
"g  c #765532",
"h  c #141B42",
"j  c #1E234B",
"k  c #26234B",
"l  c #39295A",
"z  c #2C2E63",
"x  c #393568",
"c  c #5C3342",
"v  c #43365B",
"b  c #5D3E58",
"n  c #64324A",
"m  c #5B3967",
"M  c #533E74",
"N  c #2D5A48",
"B  c #325A48",
"V  c #35634F",
"C  c #396D5B",
"Z  c #3D4676",
"A  c #59444D",
"S  c #714F4F",
"D  c #79554D",
"F  c #7E5B52",
"G  c #446C55",
"H  c #4D745B",
"J  c #77634B",
"K  c #4A4974",
"L  c #714B6D",
"P  c #4E736C",
"I  c #777C69",
"U  c #94311C",
"Y  c #912B29",
"T  c #873839",
"R  c #95383A",
"E  c #AF2E2D",
"W  c #A63536",
"Q  c #B93A3B",
"!  c #C52F30",
"~  c #C63537",
"^  c #C83638",
"/  c #CB3A3B",
"(  c #D73D38",
")  c #90541E",
"_  c #866E1C",
"`  c #914E3E",
"'  c #85543F",
"]  c #86712E",
"[  c #C2453E",
"{  c #D8443C",
"}  c #DD493E",
"|  c #F75437",
" . c #813243",
".. c #8E4643",
"X. c #8A4A48",
"o. c #9A4342",
"O. c #945949",
"+. c #834656",
"@. c #8C5959",
"#. c #985859",
"$. c #A54B44",
"%. c #BA4141",
"&. c #A75045",
"*. c #A7554E",
"=. c #AF5255",
"-. c #98664C",
";. c #8D675B",
":. c #AA6754",
">. c #B56A59",
",. c #AF7059",
"<. c #8D5C68",
"1. c #8F7776",
"2. c #A66D69",
"3. c #B57B65",
"4. c #AB7775",
"5. c #C54141",
"6. c #D1544E",
"7. c #E65A42",
"8. c #E26349",
"9. c #F56046",
"0. c #D37064",
"q. c #EB7F6C",
"w. c #46886E",
"e. c #508D6E",
"r. c #478B71",
"t. c #4C9375",
"y. c #529678",
"u. c #778873",
"i. c #778B73",
"p. c #5AA27E",
"a. c #9D872F",
"s. c #AC8F3A",
"d. c #BA8A56",
"f. c #928D7B",
"g. c #B98666",
"h. c #B19174",
"j. c #CA914E",
"k. c #D3B849",
"l. c #C58568",
"z. c #D5896C",
"x. c #D6986A",
"c. c #C98F73",
"v. c #DB9873",
"b. c #E3936D",
"n. c #E29572",
"m. c #E89A76",
"M. c #D6A27A",
"N. c #EFA57C",
"B. c #F3CC4D",
"V. c #FDEB5B",
"C. c #F3D166",
"Z. c #5C4E81",
"A. c #675989",
"S. c #4B7488",
"D. c #676698",
"F. c #6A739C",
"G. c #5C67A4",
"H. c #6B6CA2",
"J. c #6F7AA0",
"K. c #7472A5",
"L. c #92758C",
"P. c #B27C8E",
"I. c #CA7E89",
"U. c #6F958E",
"Y. c #55A484",
"T. c #5CA584",
"R. c #59A886",
"E. c #5CA794",
"W. c #68AA8A",
"Q. c #74A585",
"!. c #6CAE92",
"~. c #63B693",
"^. c #67B795",
"/. c #69BB95",
"(. c #6ABE9B",
"). c #73B794",
"_. c #7480A5",
"`. c #6CC49D",
"'. c #71C69E",
"]. c #72CA9C",
"[. c #6FC7A0",
"{. c #6DCAA2",
"}. c #70C7A0",
"|. c #71C9A1",
" X c #6FD1A6",
".X c #73D1A5",
"XX c #76D4A9",
"oX c #78D6AB",
"OX c #7AD9AE",
"+X c #9B8395",
"@X c #A98992",
"#X c #9588AE",
"$X c #A28DA0",
"%X c #B497A5",
"&X c #BFB0B9",
"*X c #CF9882",
"=X c #DB9E89",
"-X c #DAA78F",
";X c #ECAE8B",
":X c #F6A983",
">X c #F9BB8D",
",X c #FFBE98",
"<X c #D3AFAE",
"1X c #E2B5AE",
"2X c #FFC093",
"3X c #FFD29D",
"4X c #FFD8A4",
"5X c #FFECB8",
"6X c #AAA5C6",
"7X c #B3ADD0",
"8X c #AEB4D7",
"9X c #CBB6C9",
"0X c #CCBCD0",
"qX c #B9C1E4",
"wX c #C3C5DA",
"eX c #E6CCCC",
"rX c #FFF3D1",
"tX c #CECCE2",
"yX c #D1D2E5",
"uX c #D4DCF4",
"iX c #E1DFED",
"pX c #EDEFF9",
/* pixels */
"}.}.].{.|..X'.Q.<.@...X.....o.....................T T F Q.}..X{.",
"}.}.|.|..X].).f.4.2.4.2.=.&.&.&.&.&.&.&.&.&.&.$.o. . .D i.).}.}.",
"}.'.'. X.X!.u.1.<XeXeX1Xz.7.7.8.8.8.8.8.8.8.8.7.[ W  .` @.u.).(.",
"|..X.X{.E.P c <.9XpXpXeXq.| | 9.9.9.9.9.9.9.9.7.} Q $.R T ;.Q.).",
"|.|..XE.S.x l A.6XuXuX9X0.( ( 7.} } } } } } } { / ^ Q E R J Q.`.",
"}.[.E.U._.H.K.#XwXuXuX9XI.6.! ^ ~ ^ ^ ^ ^ ~ ^ ^ ( ( 5.W u S W.(.",
"(.E.S.F.6XwXyXuXiXpXpXuX9XI.=.^ ! ~ ~ ~ ~ ~ ~ ^ / 5.%.y ; p y.^.",
"(.E.S.F.6XtXtXtXwXwXwXqX8XL.=.E E Q Q %.%.5.%.Q W R y $ . > e.^.",
"[.(.E.U.J.K.K.H.H.D.D.G.G.A. .R R ` o.R  .$.o.T 6 + # .   , t.^.",
"}..X X^.S.Z M M Z.D.D.Z.z v L 2.:.X.i t w w w $ .         > t.^.",
"|.|. X[.E.P A +.P.&X&XI 4 4 L.-X=XO.q o # X o .           & y.^.",
"|.}.}. X{.Q.F :.-XrXrX@X1 3 h.rX,X-.# . # 3 = #       . & B W.(.",
"|.}.}.XX XQ.@.:.:X5X5Xh.* 1 h.4X,X-.# # D h.d.f #     & G R.'.}.",
"}.}.[. X{.W.u.;.l.;X2Xg.d d g.>X:X:.t d M.4X2Xg.d @   : y.OXOX.X",
"|.}.}.|.}.].!.i.;.>.v.x.g.3.x.m.m.l.,.g.>X3X>Xv.:.w X , y.OXOX|.",
"}.|.|.}.}. X.X!.I @.>.0.z.z.v.b.b.x.m.:X>X:Xg.O.X.t 4 V R.|.oX|.",
"|.[.}.}.|.|. X[.W.u.;.` *.>.z.n.n.m.m.:XN.l.d = $ 4 w.R.].{.{.{.",
"}.|.}.}.|.}.}. X|.).u.D i ` >.c.=X-X-X*X3.' 8 * * p C Y.{.oXXX].",
"|.[.}.}.|.[.}.|. X{.~.i.D T o.4.%X0X9X+XA * a a.s.a.p V Y.XXoX].",
"|.}.}.}.}.}.}. XXX.X`.+X1.+. .X.L.7XqXJ.> @ _ B.V.k.s s C R.`.].",
"[.}.|.[.}.}.}. X.X).f.1.$X$X<.n +.$X7XK.< o _ B.V.V.k.] p N y.^.",
"|.}.{.'.}..XoX{.Y.H f @.@X%X4.*.:.4.%XL.r 8 a a.k.C.C.s.* & w.~.",
"|.}.'.}.|.oXXXY.N 1 y ..#.4.=XM.M.c.4.#.R 9 8 e -.x.v.` @ % w.~.",
"'.|.|.|.|.(.T.V 1 ; c c t ' v.3X4XM.O.y Y 7 X @ g j.j.f # > r.~.",
"|.}.[..X.XY.B 1 6 r m k O q 3.>X,Xg.w + + X   # ] j.j.g @ > e.~.",
"].|.].oXXXr.& . 5 n L l - 1 S :.:.f o   . - - 2 g d.j.) + & w.~.",
"[.|.[.oXXXe.o   X 0 n b v k ; $ $ @   . h z z z K @.>.U @ % w.~.",
"[.[.|.XX|.T.B , , 1 q r v j < > > , , < j l m M K b Y 7 = N p.`.",
"}.}.|.|.|.(.Y.y.y.C 1 @ O < C r.t.y.y.C < ;  .=.+.r + = G R.`.'.",
"}.}.|.}.|.|.XXOXoXR.B , , B R.oXOXOXOXR.B = 9 W T q 2 N p.XXoX|.",
"}.}.}.}.}.XXXXOXOX`.p.t.e.T.`.OXOXOXOX Xp.G q + + 2 C R.|.oX.X|.",
"}.|.}.}.}.|.|.|..X`./.^.^.^.}..X X.X.X X].e.1 . . 2 r.[.XX.X|.|."
};
