/* XPM */
static char *result[] = {
/* columns rows colors chars-per-pixel */
"32 32 217 2 ",
"   c #010000",
".  c #0C0708",
"X  c #170D0A",
"o  c #180B09",
"O  c #1C1612",
"+  c #22050A",
"@  c #2A170D",
"#  c #280D10",
"$  c #251714",
"%  c #351616",
"&  c #3B1D1B",
"*  c #14251E",
"=  c #36270D",
"-  c #39251B",
";  c #342E1A",
":  c #060F36",
">  c #32172A",
",  c #152922",
"<  c #162D24",
"1  c #163126",
"2  c #1B332A",
"3  c #192B32",
"4  c #2A2A26",
"5  c #3E2C21",
"6  c #31312D",
"7  c #343836",
"8  c #521514",
"9  c #711717",
"0  c #483219",
"q  c #76211D",
"w  c #4A2927",
"e  c #55292B",
"r  c #58322D",
"t  c #6E2D2B",
"y  c #782734",
"u  c #693B33",
"i  c #763936",
"p  c #3D4627",
"a  c #5E4610",
"s  c #5C5C2A",
"d  c #684838",
"f  c #755038",
"g  c #1C2247",
"h  c #332A58",
"j  c #2D2969",
"k  c #373569",
"l  c #4C3253",
"z  c #7E3754",
"x  c #51366C",
"c  c #5B3E78",
"v  c #2B5847",
"b  c #325A47",
"n  c #3A634E",
"m  c #3C6B59",
"M  c #3D4676",
"N  c #58444D",
"B  c #79554D",
"V  c #76465A",
"C  c #615452",
"Z  c #7E5B52",
"A  c #446D54",
"S  c #7B6250",
"D  c #6F5273",
"F  c #4E756B",
"G  c #777C69",
"H  c #8F2831",
"J  c #88393A",
"K  c #95393A",
"L  c #AD2D2C",
"P  c #A63536",
"I  c #B93A3B",
"U  c #C52F30",
"Y  c #C63537",
"T  c #C93638",
"R  c #CB3A3B",
"E  c #D73D38",
"W  c #865233",
"Q  c #925A3D",
"!  c #8A732C",
"~  c #A27E2B",
"^  c #C2453E",
"/  c #D8443C",
"(  c #DD493E",
")  c #F75437",
"_  c #8F374B",
"`  c #B73942",
"'  c #8F3E61",
"]  c #8E4643",
"[  c #894B48",
"{  c #9A4243",
"}  c #964944",
"|  c #8E544E",
" . c #8F5A56",
".. c #A54B44",
"X. c #BA4141",
"o. c #A75045",
"O. c #A7554E",
"+. c #A54B5A",
"@. c #B84D56",
"#. c #A75957",
"$. c #9A634C",
"%. c #836257",
"&. c #966C5C",
"*. c #A86754",
"=. c #B46A59",
"-. c #B17950",
";. c #B57659",
":. c #935369",
">. c #B45A67",
",. c #8D7776",
"<. c #A56C68",
"1. c #AE7868",
"2. c #A87472",
"3. c #C54141",
"4. c #D4504C",
"5. c #C85259",
"6. c #E65A42",
"7. c #E26349",
"8. c #F56046",
"9. c #D37064",
"0. c #EB7F6C",
"q. c #48886E",
"w. c #498C72",
"e. c #4B9174",
"r. c #4D9578",
"t. c #549779",
"y. c #778873",
"u. c #768B73",
"i. c #9E872F",
"p. c #AF8C39",
"a. c #928D7B",
"s. c #B78566",
"d. c #B19174",
"f. c #C99A48",
"g. c #C5865A",
"h. c #D6B94A",
"j. c #C58568",
"k. c #D5896C",
"l. c #CC926D",
"z. c #D79875",
"x. c #E3936D",
"c. c #E29572",
"v. c #E89A76",
"b. c #CBA077",
"n. c #EFA57C",
"m. c #EBC949",
"M. c #FDEA59",
"N. c #F1CF65",
"B. c #293A87",
"V. c #453F83",
"C. c #5C4E81",
"Z. c #675989",
"A. c #4B7488",
"S. c #676698",
"D. c #5C67A4",
"F. c #6B6CA2",
"G. c #6F7AA0",
"H. c #7472A5",
"J. c #B27C8F",
"K. c #CA7E8B",
"L. c #519B80",
"P. c #6E958E",
"I. c #54A382",
"U. c #5BA584",
"Y. c #59A885",
"T. c #5CA794",
"R. c #68AA8A",
"E. c #75A786",
"W. c #69AC93",
"Q. c #63B693",
"!. c #69B796",
"~. c #66B994",
"^. c #6ABE9A",
"/. c #73B392",
"(. c #72BF9A",
"). c #67C39B",
"_. c #6DC49D",
"`. c #71C69E",
"'. c #72CA9C",
"]. c #6FC7A0",
"[. c #6ECBA2",
"{. c #70C7A0",
"}. c #71C9A1",
"|. c #6FD1A6",
" X c #73D1A4",
".X c #75D4A9",
"XX c #78D6AB",
"oX c #7AD9AE",
"OX c #978497",
"+X c #AD9291",
"@X c #9D88A3",
"#X c #8E90B8",
"$X c #B499AF",
"%X c #D59A86",
"&X c #DBA78F",
"*X c #EAAE8A",
"=X c #F6A983",
"-X c #F9BB8D",
";X c #FFBE98",
":X c #D3AFAE",
">X c #E2B5AE",
",X c #FFC092",
"<X c #FFD29D",
"1X c #FFD8A4",
"2X c #FFECB8",
"3X c #ABA8C9",
"4X c #AEB4D7",
"5X c #CBB7CA",
"6X c #B9C1E5",
"7X c #C3C5DA",
"8X c #E6CCCC",
"9X c #FFF3D1",
"0X c #CECCE2",
"qX c #D1D2E5",
"wX c #D4DCF4",
"eX c #EDEFF9",
"rX c #EEF3FE",
/* pixels */
"{.{.[.{.}. X`.E.%.| | [ [ } ] ] ] ] ] ] ] ] ] ] ] J J S E.].[.}.",
"{.{.'.}. X'./.a.2.2.2.<.#...o.o.o.o.o.o.o.o.o.o.{ J J Z y./.}.}.",
"{.`.{.|.}.W.y.2.:X8X8X>X0.6.6.7.7.7.7.6.7.7.7.6.^ P _ B  .G /.(.",
"}. X X[.T.F N %.5XrXrX8X0.) ) 8.8.8.8.8.8.8.8.6./ I P K _ %.E.(.",
"}..X XW.A.k k Z.3XwXwX>X9.E E 4.4.( ( ( ( ( ( / E R I L K %.E.(.",
"].^.T.P.G.H.F.#X4XwXwX5XK.4.T U U T T T T T T R R E ^ P t C R.^.",
"^.T.A.S.3X0X0XqXeXrXeXwX5XK.5.U U Y Y T Y Y Y T R R ..y & 7 t.!.",
"^.T.A.S.3X0X0XqX7X4X6X6X3XJ.+.L L I I X.` 3.X.I P K t 8 . < w.Q.",
"]._.T.P.P.H.H.F.F.S.S.F.D.Z.B K K { { { _ .._ J 8 # $ .   1 r.!.",
"].}..XT.A.M x x C.D.D.C.j l Z <.*.[ u r e e e 5 .         < e.~.",
"}.}..X[.T.F N :.J.:X$XG 6 h ,.&X%X$.w O o o X .           < t./.",
"}.].].|.|.P.B #.&X9X9X+X; 4 +X9X;X$.$   $ 0 - O       . * b U.).",
"}.}.}.|. XE.%.*.*X9X2Xd.= ; d.1X;X$.$ O S d.s.f $     * A R._._.",
"}.}.}.[.[.R.G &.9.*X,Xs.d d s.,X=X*.r d b.<X,Xg.d @   , t.XXoX}.",
"}.}.}.}.{._./.u.&.;.k.z.s.s.l.v.v.j.1.l.-X<X-Xz.*.e o < t.oXoX.X",
"}.].].}.{. X[./.G %.=.9.k.k.x.c.x.x.x.n.,X=X1.$.[ r 7 n Y.}..X}.",
"{.{.}.{.{.}.|.[.W.y. .} O.;.k.z.c.c.v.n.n.j.d - $ 7 q.t.'.[. X'.",
"}.`.[.{.{.[.].|. X/.y.B i _ =.k.%X&X&X%X1.f 0 = ; p q.Y.'. X X[.",
"`.}.{.}.{.{.'.{.|.[./.y.B J } 2.$X5X7XOXN = a i.f.i.p n I..X.X X",
"'.}.{.}.{.{.[.[.[.'./.P.,.| _ :.$X6X4XD > = ! m.M.h.s p A U.).'.",
"[.{.{.{.{.{.{.|.[./.y.,.@XJ.@.>.$X4XOXV e u ~ m.M.M.h.! p v L.~.",
"{.{.}.{.{._.{..XXXE. . .J.K.5.5.J.+X2.$.$.*.p.f.h.N.N.p.= * q.Q.",
"}.{.[.`.'.[.|.|.|.E.Z { @.4.T I +.1.b.&X*Xz.*.$.-.l.x.Q O * q.Q.",
"'.}.{.`.[. XXX).Y.F C z _ ` T L y | z.1X<Xb.[ u W g.g.f @ 1 w.Q.",
"[.{.}.{.{.XX.XY.v 3 h x x ' I H 8 0 s.,X-X1.w - f f.f.! @ < w.Q.",
"{.{.}.}.}.).t.A % > h B.B.c ' y + X u *.=.f 5 0 ! p.i.0 + O q.Q.",
"{.{.}. X|.I.v & 9 H x B.B.V.V.l .   o & & & e i Q W 0 @ . , e.~.",
"{.{.'..X|.I.p & 9 H ' c V.j j g 3 2 2 1 < 4 w t t w 4 2 2 b U.).",
"}.{.{.}.[.).t.n 5 8 H ' c j : 3 m t.t.r.e.m 4 # + 4 m r.t.R.!.).",
"{.}.{.{.[..X.XY.v - q J l g 3 b U.XXoXoXXXU.b 1 3 b U.XXoX X{.'.",
"{.}.{.{.}. XXX[.Y.A - % O 3 m U.}.oXoXoXoX_.t.e.w.I.'.XXoXXX}.{.",
"}.{.{.{.].[.|..X_.q.4 . . 3 q.'.XX}. X X X[.).~.Q.^.}.}. X}.}.{."
};
