/* XPM */
static char *result[] = {
/* columns rows colors chars-per-pixel */
"32 32 219 2 ",
"   c #010000",
".  c #0C0708",
"X  c #180B09",
"o  c #19110E",
"O  c #24070C",
"+  c #2A170D",
"@  c #251714",
"#  c #351616",
"$  c #3B1D1B",
"%  c #14251E",
"&  c #36270D",
"*  c #39251B",
"=  c #342E1A",
"-  c #060F36",
";  c #32172A",
":  c #152922",
">  c #162D24",
",  c #163126",
"<  c #1B332A",
"1  c #182B31",
"2  c #2A2A26",
"3  c #352F29",
"4  c #343836",
"5  c #521514",
"6  c #711717",
"7  c #483219",
"8  c #76211D",
"9  c #4A2927",
"0  c #55292B",
"q  c #58322D",
"w  c #6E2D2B",
"e  c #782734",
"r  c #693B33",
"t  c #763936",
"y  c #3D4627",
"u  c #5E4610",
"i  c #5C5C2A",
"p  c #684838",
"a  c #755038",
"s  c #1C2247",
"d  c #332958",
"f  c #2D2969",
"g  c #373569",
"h  c #4C3253",
"j  c #7E3754",
"k  c #51366D",
"l  c #5B3E78",
"z  c #2B5846",
"x  c #325A47",
"c  c #3A634E",
"v  c #3C6B59",
"b  c #58444D",
"n  c #6F544F",
"m  c #76465A",
"M  c #7E5B52",
"N  c #446D54",
"B  c #7B6250",
"V  c #6F5273",
"C  c #4E746B",
"Z  c #767B69",
"A  c #8F2831",
"S  c #88393A",
"D  c #95393A",
"F  c #AD2D2C",
"G  c #A63536",
"H  c #B93A3B",
"J  c #C52F30",
"K  c #C63537",
"L  c #C93638",
"P  c #CB3A3B",
"I  c #D73D38",
"U  c #8A5436",
"Y  c #8A732C",
"T  c #A27E2B",
"R  c #C2453E",
"E  c #D8443C",
"W  c #DD493E",
"Q  c #F75437",
"!  c #8F374B",
"~  c #B73942",
"^  c #8F3E61",
"/  c #8E4643",
"(  c #894B48",
")  c #9A4243",
"_  c #964944",
"`  c #8E544E",
"'  c #8E5A56",
"]  c #A54B44",
"[  c #BA4141",
"{  c #A75045",
"}  c #A7554E",
"|  c #A54B5A",
" . c #B84C55",
".. c #A75957",
"X. c #9A634C",
"o. c #86645A",
"O. c #966C5C",
"+. c #A86754",
"@. c #B46A59",
"#. c #B17950",
"$. c #B57659",
"%. c #935369",
"&. c #B45A67",
"*. c #8C7776",
"=. c #A56C68",
"-. c #AE7868",
";. c #A87472",
":. c #C54141",
">. c #D4504C",
",. c #C85259",
"<. c #E65A42",
"1. c #E26349",
"2. c #F56046",
"3. c #D37064",
"4. c #EB7F6C",
"5. c #48886E",
"6. c #498C72",
"7. c #4B9174",
"8. c #4D9779",
"9. c #539779",
"0. c #738B74",
"q. c #7A8974",
"w. c #9E872F",
"e. c #AF8C39",
"r. c #8F8C7A",
"t. c #B78566",
"y. c #B19174",
"u. c #C99A48",
"i. c #C5865A",
"p. c #D6B94A",
"a. c #C58568",
"s. c #D5896C",
"d. c #CC926D",
"f. c #D79875",
"g. c #E3936D",
"h. c #E29572",
"j. c #E89A76",
"k. c #CBA077",
"l. c #EFA57C",
"z. c #EBC949",
"x. c #FDEA59",
"c. c #F1CF65",
"v. c #293A87",
"b. c #453F83",
"n. c #5C5B93",
"m. c #675989",
"M. c #4B7488",
"N. c #676698",
"B. c #6A739C",
"V. c #6B6CA2",
"C. c #6F7AA0",
"Z. c #7472A5",
"A. c #B27C8E",
"S. c #CA7E8B",
"D. c #6E958E",
"F. c #4EA581",
"G. c #55A382",
"H. c #5CA584",
"J. c #59A885",
"K. c #5CA794",
"L. c #69AA8A",
"P. c #76A687",
"I. c #69AC93",
"U. c #65B895",
"Y. c #66B994",
"T. c #6ABE9A",
"R. c #75B896",
"E. c #69C59D",
"W. c #6DC69E",
"Q. c #71C69E",
"!. c #72CA9C",
"~. c #6FC7A0",
"^. c #6DCAA2",
"/. c #70C7A0",
"(. c #71CAA1",
"). c #7ACDA7",
"_. c #7CCEA8",
"`. c #6FD1A6",
"'. c #73D1A4",
"]. c #76D4A9",
"[. c #79D6AB",
"{. c #7AD9AE",
"}. c #7CDAB1",
"|. c #988799",
" X c #AD9291",
".X c #8CBB9B",
"XX c #9588AE",
"oX c #B499AF",
"OX c #BFB0B9",
"+X c #D59A86",
"@X c #DBA78F",
"#X c #EAAE8A",
"$X c #F6A983",
"%X c #F9BB8D",
"&X c #FFBE98",
"*X c #D3AFAE",
"=X c #E2B5AE",
"-X c #9BC2A6",
";X c #80D5AE",
":X c #8CD6B2",
">X c #87DCB5",
",X c #96DBB9",
"<X c #95E3BF",
"1X c #FFC092",
"2X c #FFD29D",
"3X c #FFD8A4",
"4X c #FFDDBE",
"5X c #FFECB8",
"6X c #ABA8C9",
"7X c #AEB4D7",
"8X c #CBB7CA",
"9X c #B9C1E5",
"0X c #C3C5DA",
"qX c #E6CCCC",
"wX c #FFF3D1",
"eX c #CECCE2",
"rX c #D4DCF4",
"tX c #E1DFED",
"yX c #EEF3FE",
/* pixels */
"^.(.~.P.M t S / / / / / / / / / / / / / _ ( ` *.P.Q.`.^.(.^.(.(.",
"(.(.R.0.M ! S ) ] { { { { { { { { { { ..=.;.;.;.r.P.!.'.(.(.~.!.",
"Q.R.Z M m / G :.<.1.1.1.1.1.1.1.1.Q <.s.=XqXqX*Xr.Z P.'.'.(.~./.",
"R.P.o.D D G H E <.2.2.2.2.2.2.2.2.Q Q 4.qXyXyX8X%.b C K.^.'.(.(.",
"T.P.o.S F K P E E W W W W W W W >.I I 3.*XrXrX6Xm.f g M.U.`.`.(.",
"T.H.n e F R I P P L K K L L K K L L ,.S.8XtXrX7XXXZ.V.B.D.K.T.~.",
"U.9.y # e ] :.P L K L K K K J J J ,.A.6XtXyXyXtXtXeXeX6XN.M.K.T.",
"U.6., . 5 w A G H :.[ [ [ H H F F | A.7X9X8X0XeXeXeXeX6XN.M.K.T.",
"U.7.>   . @ # 5 S ) ] ) ) ) ! D D ( n.V.V.N.N.N.Z.Z.Z.C.D.K.T.^.",
"Y.9.:         . $ 9 0 0 q r ` +.=.V h f b.N.n.m.k g b.M.U.`.].^.",
"Y.7.>           . X X X o 9 X.+X*X*.4 ; Z 8XOXA.m b C K.^.).^.(.",
"R.L.x : .       @ 3 4 @   @ X.1X4X X2 2 y.wXwX#X@.M P.`.`.(.(.(.",
"!.W.H.N %     @ a -.y.B o + X.&X3Xy.= = y.5X5X#X+.' P.'.`.^./.(.",
").{.[.8.>   + p a.1X2Xk.a q #.$X1Xt.p p t.1Xl.d.O.Z L.^.^.^./.(.",
"(.{.{.8.> X q +.h.%X2X%Xt.$.a.j.l.d.t.t.f.d.$.O.q.I.W./.(.(./.(.",
"(.].'.J.c 4 q ( X.-.#X%Xl.j.g.g.h.h.d.3.3.@.' Z L.'.`.(.~./.(.W.",
"(.(.!.E.9.5.4 = * p a.l.$Xj.g.h.h.s.@.} ] ` q.I.~.(.(.(.^.(.^.Q.",
"(.'.{.`.J.v y = & 7 a -.+X@X@X+Xd.@./ t n q.R.[.].(././.W.Q.W.(.",
"'.[.].F.c y w.e.w.u * b |.8X8XoX=./ S n 0.R.>X<X[.W.W./././.^.!.",
"W.E.J.v i i p.x.z.Y & ; m.6X9X6X%.! ` *.P..X,X<X;XW.E.(._._.(.(.",
"U.8.z y Y p.x.x.z.T r 0 m |.6XoX&. .A.|.*.r.-X<X;XE.E._.:X:X_.(.",
"U.5.% & e.c.c.p.u.e.+.+.+.;. XA.,.,.S.A.%.o..X<X}.(.).;X,X:X).).",
"U.5.% + U g.d.#.X.+.d.#Xl.y.;...[ >.,. .) o.R.{.]._.:X,X:X_././.",
"U.6.> @ U i.i.U r M f.3X3Xk.( 8 F P ~ ! ! b C 9.E.>X,X:X).W.W.Q.",
"U.5.: + Y u.u.Y * 0 -.%X%Xt.9 5 A ~ ^ l k d 1 z G.{.>X].~.W.~.~.",
"U.5.% X 7 T e.U 7 * a @.+.r X O 6 ^ l v.v.d ; # N 9.E.^.(.~./.^.",
"U.6.> . + 7 U U t 9 $ $ * O   X d l b.v.v.k ! 6 * z F.^.].(./.(.",
"U.G.x < , 2 9 8 w 9 2 , , < < 1 s f f b.l j A 8 # y F.`.].W.(.Q.",
"Q.U.H.9.7.v 2 X O 3 v 7.8.8.9.v 1 - f b.^ A 5 $ N 9.E.(.(.Q.(.(.",
"!.(.].{.[.J.x > , z H.{.{.}.[.H.y 1 s h S 8 $ z G.].].Q.Q.^.(.W.",
"(.(.].{.[.E.G.7.7.G.E.{.{.{.[.^.H.N 1 O # 7 N F.^.].].Q.Q.(./.(.",
"(.(.(.].(.Q.T.Y.U.T.(.'.(.'.).]./.6.1 . . 2 6.^.].(.(./.^.Q.^.Q."
};
