/* XPM */
static char *result[] = {
/* columns rows colors chars-per-pixel */
"32 32 221 2 ",
"   c #010000",
".  c #0D0808",
"X  c #170707",
"o  c #141011",
"O  c #310C0C",
"+  c #27150A",
"@  c #251813",
"#  c #381A1A",
"$  c #0F241F",
"%  c #13241C",
"&  c #322B16",
"*  c #34261D",
"=  c #0E142E",
"-  c #311729",
";  c #152A23",
":  c #152C24",
">  c #183228",
",  c #182935",
"<  c #2B2A26",
"1  c #3B2C23",
"2  c #2E312C",
"3  c #343836",
"4  c #471718",
"5  c #6A1616",
"6  c #452813",
"7  c #75221E",
"8  c #411D22",
"9  c #472923",
"0  c #56292C",
"q  c #563626",
"w  c #592839",
"e  c #5B3935",
"r  c #712F2F",
"t  c #7C2833",
"y  c #773638",
"u  c #3D4627",
"i  c #674E16",
"p  c #684838",
"a  c #744937",
"s  c #765532",
"d  c #141B42",
"f  c #26234B",
"g  c #39295A",
"h  c #2C2E63",
"j  c #393568",
"k  c #5C3342",
"l  c #50324E",
"z  c #5D3E58",
"x  c #65334D",
"c  c #5A3967",
"v  c #533E74",
"b  c #2D5A48",
"n  c #335B49",
"m  c #35634F",
"M  c #3A6C59",
"N  c #3D4676",
"B  c #59444D",
"V  c #745350",
"C  c #7E5B52",
"Z  c #446C55",
"A  c #44755C",
"S  c #77634B",
"D  c #4A4974",
"F  c #714B6D",
"G  c #4E736C",
"H  c #767B69",
"J  c #94311C",
"K  c #912B29",
"L  c #873839",
"P  c #95383A",
"I  c #AF2E2D",
"U  c #A63536",
"Y  c #B93A3B",
"T  c #C52F30",
"R  c #C63537",
"E  c #C83638",
"W  c #CB3A3B",
"Q  c #D73D38",
"!  c #90541E",
"~  c #866E1C",
"^  c #8C503E",
"/  c #86712E",
"(  c #D8443C",
")  c #DD493E",
"_  c #F75437",
"`  c #813243",
"'  c #8E4643",
"]  c #8A4A48",
"[  c #9A4342",
"{  c #9C4C48",
"}  c #8D5649",
"|  c #834656",
" . c #8C5859",
".. c #985859",
"X. c #A54B44",
"o. c #BA4141",
"O. c #A75045",
"+. c #A7554E",
"@. c #AF5255",
"#. c #98664C",
"$. c #8D675B",
"%. c #AA6754",
"&. c #B56A58",
"*. c #AF7059",
"=. c #8D5C68",
"-. c #8E7675",
";. c #A66D69",
":. c #B57B65",
">. c #AB7775",
",. c #C54141",
"<. c #D1544E",
"1. c #E65A42",
"2. c #E26349",
"3. c #F56046",
"4. c #D37064",
"5. c #EB7F6C",
"6. c #47886E",
"7. c #508D6E",
"8. c #468B71",
"9. c #4C9375",
"0. c #529678",
"q. c #7A8974",
"w. c #5AA27E",
"e. c #9D872F",
"r. c #AC8F3A",
"t. c #BA8A56",
"y. c #8F8D7B",
"u. c #B98666",
"i. c #B19174",
"p. c #CA914E",
"a. c #D3B849",
"s. c #C58568",
"d. c #D5896C",
"f. c #D6986A",
"g. c #C98F73",
"h. c #DB9873",
"j. c #E3936D",
"k. c #E29572",
"l. c #E89A76",
"z. c #D6A27A",
"x. c #EFA57C",
"c. c #F3CC4D",
"v. c #FDEB5B",
"b. c #F3D166",
"n. c #5C5B93",
"m. c #675989",
"M. c #4B7488",
"N. c #676698",
"B. c #6B6CA2",
"V. c #6F7AA0",
"C. c #7472A5",
"Z. c #92758C",
"A. c #B27C8E",
"S. c #CA7E89",
"D. c #519B80",
"F. c #6E958E",
"G. c #55A484",
"H. c #5CA584",
"J. c #59A886",
"K. c #5CA794",
"L. c #68AB8B",
"P. c #74A585",
"I. c #69AC93",
"U. c #63B693",
"Y. c #67B896",
"T. c #69BB95",
"R. c #6ABE9B",
"E. c #75B896",
"W. c #7480A5",
"Q. c #6DC59D",
"!. c #6FC89F",
"~. c #71C69E",
"^. c #72CA9C",
"/. c #6FC7A0",
"(. c #6ECAA2",
"). c #70C7A0",
"_. c #71CAA1",
"`. c #7BCEA7",
"'. c #6FD1A6",
"]. c #73D1A4",
"[. c #76D4A9",
"{. c #7AD5AB",
"}. c #7AD9AE",
"|. c #9C8698",
" X c #A98892",
".X c #9588AE",
"XX c #B497A5",
"oX c #BFB0B9",
"OX c #CF9882",
"+X c #DB9E89",
"@X c #DAA78F",
"#X c #ECAE8B",
"$X c #F6A983",
"%X c #F9BB8D",
"&X c #FFBE98",
"*X c #D3AFAE",
"=X c #E2B5AE",
"-X c #8FD1AE",
";X c #89D8B3",
":X c #93E3BC",
">X c #FFC093",
",X c #FFD29D",
"<X c #FFD8A4",
"1X c #FFECB8",
"2X c #AAA5C6",
"3X c #B3ADD0",
"4X c #AEB4D7",
"5X c #CBB6C9",
"6X c #CCBCD0",
"7X c #9EE6C2",
"8X c #A0E8C5",
"9X c #B9C1E4",
"0X c #C3C5DA",
"qX c #E6CCCC",
"wX c #FFF3D1",
"eX c #CECCE2",
"rX c #D1D2E5",
"tX c #D4DCF4",
"yX c #E1DFED",
"uX c #EDEFF9",
"iX c #EEF3FE",
/* pixels */
"(._./.P.C ^ L ` ' ' ' ' ' ' ' ' ' ' ' ' ] { | $.P._.]._.(.!.!._.",
"_._.E.q.C ` P [ X.O.O.O.O.O.O.O.O.O.O.+.;.;.>.>.y.E.^._.].!.).!.",
"~.E.H C ] L U ,.1.2.2.2.2.2.2.2.2.1.1.d.=XqXqX*Xy.H P.'.].!._.~.",
"E.P.$.L P U Y <.1.3.3.3.3.3.3.3.3._ _ 5.qXiXiX5X=.z G K.(.]._._.",
"^.P. .P U Y E Q ( ) ) ) ) ) ) ) 1.Q Q 4.5XtXtX2Xm.g j M.Y.'.'._.",
"T.L.B t U W Q W W R E E R R R T T E <.S.5XtXtX3X.XC.B.V.F.K.R./.",
"T.0.3 # r o.,.W E R R R R R R T T ,.A.4XyXuXuXuXtXeXeX2XN.M.K.R.",
"U.9.> . # r K U Y o.,.o.o.o.Y I I @.A.4X9X6X0X0XeXrXeX2XN.M.K.R.",
"T.9.>   . @ O 4 L [ X.` [ [ ' P P | n.B.B.N.N.B.C.C.C.W.F.K.R.(.",
"T.7.;         o # 0 0 w w y ] %.%.F j j n.n.n.m.v j N M.U.'.[.(.",
"T.9.:           . o o + o 9 #.+X=X-.3 - H oX*X|.F B G K.(._._._.",
"Q.L.n % .       @ 1 1 @   @ #.>XwXi.< < >.wXwX#X%.} F.'.'./._._.",
"~.Q.H.M %     + a u.i.S o + #.>X<Xi.* * i.1X1X#X%. .P.].[.(.!.).",
"_.{.}.9.% . + p s.>X,Xz.s q %.$X%Xu.p p g.%Xx.s.$.H L.(.'.(.).).",
"_.}.}.0.> X q %.h.%X,X%Xu.*.s.l.x.d.u.u.f.f.&.$.q.E.Q.)._.!._.!.",
"_.{.].H.m 3 e ] } u.#X%X$Xl.j.j.h.h.f.4.4.&.$.H L.].'._./._.).).",
"^.(.^.Q.U.A 3 & * p s.x.$Xl.j.l.k.d.&.+.[ } q.L.(.'.(.(.(.!.~./.",
"].].[.'.G.A u & & 6 ^ u.OX@X@X+Xg.&.' y V y.E.}.[.(.!.!.!.!.!._.",
"_.[.].w.b u e.r.e.i & B |.5X0XXX&.^ L V H E.;X:X{.Q.Q.Q.~.)././.",
"!.Q.w.6.u s a.v.c.s + , C.9X3XZ.| x  .-.F.-X7X8X;XQ.Q./.`.`._._.",
"Y.D.b u / a.v.v.c.e.o : V.3X X| L  .|..X-.|.-X8X}./.Q.`.;X-X`.`.",
"U.6.$ & r.b.b.a.e.i 6 e Z.XX>.+.#.A.XX X .^ H I.'.[.{.-X:X-X`._.",
"U.6.$ + ^ f.f./ q 6 7 P ..>.g.z.z.OX>...] r 2 n J.;X:X;X-X`._.).",
"U.8.; + s 4.p.s + X 5 K r } z.,X<Xh.} 0 k w # < M I.-X;X[.!.!.).",
"U.8.: + s a.p.~ +   O O X 0 u.&X%X:.0 @ f z w 4 * n L.{.{.!.!.!.",
"U.6.% O ! p.t.s , = = .   + a %.&.V < = g c k 4 . $ 7._.[._././.",
"U.8.$ O J o.$.D j h h d .   @ # # # f j c x 8 X   % 6.].[._././.",
"R.G.b * 5 ` x D v c g f , > > : : , d l w 0 < > > n H._.].)./._.",
"(./.J.Z * O k | { ` - , M 0.0.9.8.M , o + < M 0.D.H.T._._.).)._.",
"_.[.[.J.b < 8 L U 7 8 b J.}.}.}.[.J.n > > b H.{.}._._._._._._.).",
"_.[.[.(.J.M < O O 9 Z J.'.}.}.}.[.Q.G.7.7.G.!.}.}.{._.).!.~.!.).",
"_._._.[.Q.8.< . . < 7.Q.[.'.]._.].!.R.T.U.R._._.]._._./._.!._.)."
};
