/* XPM */
static char *result[] = {
/* columns rows colors chars-per-pixel */
"32 32 217 2 ",
"   c #010000",
".  c #0C0403",
"X  c #0A0908",
"o  c #150A0B",
"O  c #180808",
"+  c #13170E",
"@  c #080916",
"#  c #1C1612",
"$  c #310E0C",
"%  c #27170B",
"&  c #250D11",
"*  c #251813",
"=  c #39191A",
"-  c #0F231E",
";  c #14251E",
":  c #34280B",
">  c #322617",
",  c #332E19",
"<  c #0A0D25",
"1  c #151428",
"2  c #2F142A",
"3  c #152B23",
"4  c #153027",
"5  c #372D23",
"6  c #27342A",
"7  c #383826",
"8  c #2F2A32",
"9  c #343836",
"0  c #4F1516",
"q  c #601920",
"w  c #472824",
"e  c #56292C",
"r  c #5A3929",
"t  c #4F3230",
"y  c #772626",
"u  c #712F2E",
"i  c #733735",
"p  c #3D4627",
"a  c #645019",
"s  c #5B5C2A",
"d  c #684838",
"f  c #6E4E3C",
"g  c #181D43",
"h  c #35234B",
"j  c #2C2C62",
"k  c #3C2862",
"l  c #353468",
"z  c #50364E",
"x  c #48396E",
"c  c #2C5748",
"v  c #325D4A",
"b  c #346552",
"n  c #3D4676",
"m  c #5A474B",
"M  c #775050",
"N  c #7E5B52",
"B  c #476B55",
"V  c #467359",
"C  c #7B6250",
"Z  c #4C487E",
"A  c #564579",
"S  c #67567C",
"D  c #4E736C",
"F  c #767B69",
"G  c #A41E1F",
"H  c #8E2224",
"J  c #88393A",
"K  c #95393A",
"L  c #AF2D2D",
"P  c #B8282B",
"I  c #A63536",
"U  c #B93A3B",
"Y  c #C52F30",
"T  c #C63537",
"R  c #C83638",
"E  c #CB3A3B",
"W  c #D73D38",
"Q  c #88711F",
"!  c #885538",
"~  c #8C7329",
"^  c #D8443C",
"/  c #DD493E",
"(  c #F75437",
")  c #A83B40",
"_  c #8E4643",
"`  c #8A4B48",
"'  c #9A4342",
"]  c #9A4447",
"[  c #8E5451",
"{  c #A64A45",
"}  c #BD4140",
"|  c #A75045",
" . c #AA564B",
".. c #B25258",
"X. c #99664C",
"o. c #87635B",
"O. c #966C5C",
"+. c #A66656",
"@. c #B46A59",
"#. c #B4755C",
"$. c #895765",
"%. c #8C7073",
"&. c #A56D69",
"*. c #A97271",
"=. c #C54141",
"-. c #D1544E",
";. c #E65A42",
":. c #E26349",
">. c #F56046",
",. c #C35B64",
"<. c #D37064",
"1. c #EB7F6C",
"2. c #43876E",
"3. c #51896E",
"4. c #468970",
"5. c #4C9277",
"6. c #539577",
"7. c #75836F",
"8. c #7A8974",
"9. c #51A07F",
"0. c #9D872F",
"q. c #AC8F3A",
"w. c #8F8C7A",
"e. c #B78566",
"r. c #B19174",
"t. c #D19D4B",
"y. c #CF8A5E",
"u. c #D4B849",
"i. c #C58567",
"p. c #D5896C",
"a. c #D6986A",
"s. c #C68E70",
"d. c #D89873",
"f. c #E3936D",
"g. c #E29572",
"h. c #E89A76",
"j. c #D7A67B",
"k. c #EBA47B",
"l. c #F3CC4D",
"z. c #FDEB5B",
"x. c #F3D166",
"c. c #5C4E81",
"v. c #675989",
"b. c #4B7488",
"n. c #676698",
"m. c #5C67A4",
"M. c #6B6CA2",
"N. c #6F7AA0",
"B. c #7472A5",
"V. c #9D788E",
"C. c #B17C90",
"Z. c #CA7E89",
"A. c #6E958E",
"S. c #5BA685",
"D. c #58A686",
"F. c #5CA794",
"G. c #69AA8A",
"H. c #76A586",
"J. c #69AC93",
"K. c #66B895",
"L. c #6ABD9B",
"P. c #75B896",
"I. c #6DC69E",
"U. c #6FC89F",
"Y. c #71C69E",
"T. c #72CA9C",
"R. c #6FC7A0",
"E. c #6ECAA2",
"W. c #70C7A0",
"Q. c #71C9A1",
"!. c #7ACEA7",
"~. c #7CCEA8",
"^. c #6FD1A6",
"/. c #73D1A4",
"(. c #76D3A9",
"). c #79D5AB",
"_. c #7AD9AE",
"`. c #9A8B9B",
"'. c #AE8A8C",
"]. c #8AB698",
"[. c #9588AE",
"{. c #AF9CB6",
"}. c #BFB0B9",
"|. c #C3868A",
" X c #D79D89",
".X c #DBA99C",
"XX c #ECAE8B",
"oX c #F6AA83",
"OX c #F5BC8D",
"+X c #FFBC8E",
"@X c #FFBE98",
"#X c #D3AFAE",
"$X c #E2B5AE",
"%X c #9BC2A5",
"&X c #80D5AE",
"*X c #8CD6B3",
"=X c #8ADCB7",
"-X c #96DAB9",
";X c #99E0BE",
":X c #FFC093",
">X c #FFD39A",
",X c #FFD7A7",
"<X c #FFECB8",
"1X c #AAA5C6",
"2X c #AEB4D7",
"3X c #CBB5C8",
"4X c #CBBED1",
"5X c #B6C2E1",
"6X c #C3C5DA",
"7X c #E6CCCC",
"8X c #FFF3D1",
"9X c #CECCE2",
"0X c #D1D2E5",
"qX c #D4DCF4",
"wX c #E1DFED",
"eX c #EDEFF9",
"rX c #EEF3FE",
/* pixels */
"E.Q.R.H.N _ J _ _ _ _ ` _ _ _ _ _ _ _ _ ` ] [ %.H.T.^.T.E.Q.U.Q.",
"Q.Q.P.8.N i J ] { | | | | | | | | { |  .&.&.*.%.w.P.T./.Q.E.Q.U.",
"Y.P.F N M _ I =.;.:.:.:.:.:.:.:.:./ :.1.$X7X7X#X*.F H././.U.U.Q.",
"P.H.o.K K I E =.;.>.>.>.>.>.>.>.>.( ( 1.7XrXrX3X%.z D F.E./.Q.Q.",
"P.H.o.K L U R W ^ / / / / / / / / / W <.#XqXqX1Xv.k l b.K.^./.Q.",
"L.G.m u I E W E R R R R R T T T T E -.Z.3XqXqX5X[.B.M.N.A.F.L.R.",
"K.6.9 = y ) =.E R T R R R T U Y Y } C.3XwXeXeXwXqX9X9X1Xn.b.F.L.",
"K.5.4 X 0 u K I U =.=.=.) U U L L ..[.2X5X6X4X9X9X0X9X1Xn.b.F.L.",
"K.6.;   o * & 0 J ' ] ' ] ' K K J ` v.m.m.n.n.M.N.B.B.A.A.F.L.R.",
"K.6.3         o 5 e e e r i ` +.&.N l j Z n.n.c.x l n b.F.).^.!.",
"K.6.4           o o o o & w X. X$X%.8 h %.}.}.'.$.m D F.E.(.Q.Q.",
"K.G.v ; X       * 5 5 *   * X.@X<X'.> 8 r.8X8XXX..N A.^.^.Q.W.W.",
"T.Y.S.b ; .   # f e.r.C + % X.+X,Xr.5 , r.<X<XXX+.N H.(.^.R.R.R.",
"Q._._.6.3 . # i i.+X,Xs.f r #.k.OXe.f f s.:Xk.i.O.F G.E.^.R.W.W.",
"/._._.5.4 O r +.g.+X,XOXe.#.i.h.k.p.#.e.a.p.@.O.8.P.R.R.E.Q.W.W.",
"Q.(.!.S.b 7 r ` [ e.oX+Xk.k.f.f.g.d.p.p.<.@.o.F J.Q.(.W.W.W.W.W.",
"E.Q.T.I.K.V 7 > > d i.oXk.h.f.h.d.p.@...{ o.7.G.E.^.Q.Q.Q.E.Q.W.",
"Q./.).E.D.V p p : , ! e. X.X.X Xs.@._ i M 8.].)./.E.I.Y.U.I.I.Q.",
"(.(._.D.c p ~ q.0.a : m `.4X4X{.*._ J M 7.Y.=X-X).W.I.E.I.Q.Q.Y.",
"I.I.G.V p s u.z.l.Q % 1 S {.{.V.[ _ [ %.A.].-X;X).I.I.Q.~.~.Q.Q.",
"K.6.c p ~ u.z.z.l.Q % @ z %.$.[ ) ..C.[.%.w.%X-X).I.I.!.*X*X~.Q.",
"K.2.- : q.x.x.u.q.a > w M +.@. .=.,.C.C.$.O.].=X).Q.Q.*X-X*X&XQ.",
"K.2.- * ! a.d.~ r : w ` i.j.j.i. . .,...{ o.H.!.(.!.*X-X*X~.W.Y.",
"G.2.- & ! y.p.f % . = [ k.>X>Xa.` u L P H m S.Q.^.!.*X*X!.I.I.Y.",
"K.4.; % Q t.t.! %   o r i.:X:Xe.w 0 H G 0 6 5.E.(.Q.~.!.Q.I.I.U.",
"K.9.c 7 a Q ~ a % X @ 8 o.|.|.$.8 2 q y 7 b D./.(.Q.Q.I.W.Q.W.Q.",
"U.I.S.V p : : % . @ g j Z S S x l g & 5 B D.I.E.Q.Q.E.I.I.Q.Q.Y.",
"/.(.).S.c 4 4 +   @ k A A x j j j h = 5 B D.I.Q.Q.Q.W.Q.Q.Y.E.Q.",
"Q.(.(.I.9.5.5.v + o t $.` z 1 < < 2 y y 5 v D.Q.(.I.Y.E.W.Q.R.Q.",
"Y.E.Q.Q./._.(.D.v 8 w i i w O     $ y H w c 6.(.(.Q.Q.Y.Q.Y.Q.I.",
"Q.Y.Q.Q.(._._.^.S.V 5 * & o .     . $ 5 B 6.I.Q.Q.Q.W.Q.I.Q.Q.Y.",
"R.Q.Q.Q.Q.Q.^.(.R.3.6 . . .       . . 6 3.I.E.Q.Q.Y.W.Q.Q.Q.Y.E."
};
