/* XPM */
static char *result[] = {
/* columns rows colors chars-per-pixel */
"32 32 200 2 ",
"   c #010000",
".  c #0B0403",
"X  c #00000C",
"o  c #1A0000",
"O  c #140B0B",
"+  c #1C0E0C",
"@  c #030413",
"#  c #190E15",
"$  c #200C0C",
"%  c #2A090B",
"&  c #22100C",
"*  c #29120E",
"=  c #230D11",
"-  c #340F13",
";  c #241313",
":  c #2A1515",
">  c #261C16",
",  c #371413",
"<  c #381A1A",
"1  c #11271B",
"2  c #33210A",
"3  c #2F2B1B",
"4  c #352517",
"5  c #1D0D25",
"6  c #191725",
"7  c #0B1031",
"8  c #321B2A",
"9  c #15292B",
"0  c #173228",
"q  c #1A3329",
"w  c #2C2D24",
"e  c #253228",
"r  c #2F2835",
"t  c #2C3C32",
"y  c #3B3A38",
"u  c #431917",
"i  c #521718",
"p  c #6A1C1D",
"a  c #4B3116",
"s  c #482623",
"d  c #4B2324",
"f  c #572425",
"g  c #572728",
"h  c #5B372D",
"j  c #4C3335",
"k  c #5B3630",
"l  c #672C2D",
"z  c #74262A",
"x  c #652C31",
"c  c #673334",
"v  c #6B3433",
"b  c #77393B",
"n  c #665116",
"m  c #4D4133",
"M  c #6D4231",
"N  c #7A483E",
"B  c #191C44",
"V  c #312B51",
"C  c #27306B",
"Z  c #4B2F52",
"A  c #632F4A",
"S  c #493667",
"D  c #4C3D77",
"F  c #513F75",
"G  c #2B4F48",
"H  c #3C414A",
"J  c #335B47",
"K  c #2F6658",
"L  c #364E6C",
"P  c #55534A",
"I  c #6A4D4B",
"U  c #774258",
"Y  c #7C5650",
"T  c #7E5C55",
"R  c #446F58",
"E  c #786259",
"W  c #56427B",
"Q  c #68456C",
"!  c #4C766C",
"~  c #747C6B",
"^  c #797D6C",
"/  c #892627",
"(  c #9B2527",
")  c #9B2A2B",
"_  c #893B3B",
"`  c #973538",
"'  c #B62E32",
"]  c #A73939",
"[  c #BC3235",
"{  c #B83738",
"}  c #C83838",
"|  c #CE3939",
" . c #D33B3D",
".. c #9B403E",
"X. c #A5453F",
"o. c #C9433C",
"O. c #D4443D",
"+. c #DB453E",
"@. c #8A3F40",
"#. c #8C4543",
"$. c #864947",
"%. c #994A46",
"&. c #8D584D",
"*. c #9A5A4C",
"=. c #824854",
"-. c #895855",
";. c #92595F",
":. c #A44D44",
">. c #A94F49",
",. c #AB5148",
"<. c #A65E52",
"1. c #9D6A49",
"2. c #826259",
"3. c #8F6559",
"4. c #966858",
"5. c #A86A56",
"6. c #BA6859",
"7. c #B3785F",
"8. c #895A69",
"9. c #905661",
"0. c #9C6E60",
"q. c #9E7279",
"w. c #B87A63",
"e. c #AC6C74",
"r. c #DD4840",
"t. c #DA5643",
"y. c #E95442",
"u. c #F25F47",
"i. c #DF6048",
"p. c #C36C5C",
"a. c #E16449",
"s. c #F86749",
"d. c #FC6448",
"f. c #FF714B",
"g. c #C47C63",
"h. c #D47B63",
"j. c #DA7E65",
"k. c #4A8B6E",
"l. c #4C8C71",
"z. c #4E9778",
"x. c #589174",
"c. c #68826B",
"v. c #7A806D",
"b. c #7B8A75",
"n. c #59A67E",
"m. c #A98C2E",
"M. c #95864E",
"N. c #839278",
"B. c #CA8953",
"V. c #C58859",
"C. c #CC9159",
"Z. c #D0AC45",
"A. c #E0AB5D",
"S. c #E9B958",
"D. c #D6866C",
"F. c #D3906A",
"G. c #ED9573",
"H. c #F3C856",
"J. c #EED66D",
"K. c #FFEB67",
"L. c #3B4982",
"P. c #466890",
"I. c #666798",
"U. c #509184",
"Y. c #768088",
"T. c #6E9B81",
"R. c #759D82",
"E. c #59A484",
"W. c #5BA684",
"Q. c #5AA295",
"!. c #69A283",
"~. c #6EAC8D",
"^. c #72A88A",
"/. c #68B794",
"(. c #6FBB97",
"). c #73B291",
"_. c #78B691",
"`. c #6EC49D",
"'. c #70C59E",
"]. c #6FC7A0",
"[. c #6FCCA3",
"{. c #70C7A0",
"}. c #71C9A1",
"|. c #6FD1A6",
" X c #6FD5A9",
".X c #6ED8AC",
"XX c #74D1A6",
"oX c #75D5A9",
"OX c #7BD5AB",
"+X c #79D9AD",
"@X c #B1AE9B",
"#X c #92A1B9",
"$X c #CDAD9B",
"%X c #82DAB1",
"&X c #91DEB9",
"*X c #FFFE87",
"=X c #FFFC95",
"-X c #FFFFBA",
";X c #B5BBC0",
":X c #FFFFDF",
/* pixels */
"{.{.{.|.'.R.2..._ #.#.#.#.#.#.#.#.#.#.#.#.#.#._ ..E R.'.}.{.}.{.",
"{.}.{.'.).b.-...X.:.,.:.:.:.:.:.:.:.:.:.:.:.:.X...&.b.).{.}.[.}.",
"[.[.[.).^ &.] X.t.a.i.i.a.i.i.i.i.i.i.i.a.a.a.t.o.] -.^ ).[.|.[.",
"[. X[.^.2.` } +.y.s.f.f.f.f.f.f.f.f.f.f.f.f.d.y.O.' ` E ^.[.XX[.",
"[.|.[.^.-.` [ | +.y.d.f.f.f.f.f.f.f.f.f.f.d.y.+.| [ ` E !.[.|.[.",
"[.oX XW.P z ' |  .o.y.u.s.u.u.d.u.d.s.s.u.t.| | | [ ` E ~.|. X[.",
"}.+XXXz.t u ( | | } o.r.O.O.r.r.r.+.+.O.O.O.} } | [ ` E ~.[. X[.",
"}.{./.c.j u p ) }  . . .| ' ( / / ( ' |  . . .[ ) / %.3.N.).'.[.",
"'.).^ 3.5.N u i )  . . . .) i % % i )  . .r. .( i f *.w.0.~ ~.`.",
"(.T.Y ,.D.w.m , p ) ) ' { ` d = ; i ` { ] ) ) p , m w.D.,.Y T.(.",
"(.T.Y ,.D.F.4.k < , , i b @.b k k b @.b i - - < h 1.F.h.>.Y T.(.",
"`.~.^ 4.7.D.D.*.2     O s c v c c c c s O     > &.D.D.6.3.^ ~.'.",
"].`.).b.3.6.D.5.3       O ; : : : : ; O       4 5.D.6.3.b.).].].",
"}. X.X~.T *.p.5.h #                       . # h 5.g.0.~ ~.|.[.[.",
"[. X.X~.E #.%.*.N d O                     O d b *.0.b.).[.|.}.}.",
"[.`.).N.3.$.v x v g < ; : : : : : : : : ; < g l x I !.|.oX{.[.}.",
"(.~.^ 0.w.4.d + : 4 g v v v c c c c c v v g 4 = $ t z.oXOX[.`.].",
"(.T.-.,.j.7.j @ X ; v #.b g f f f f g b #.v ;     V Q.+X+X`.].].",
"(.T.T ,.h.w.A B @ = v b d = = + $ = ; d b v $ X 7 L Q. XXX`.`.{.",
"].~.^ 4.p.e.I.C @ + u d 4 w y H V y 3 4 d d 6 B L P.U.E.'.%XXX}.",
"].].).N.4.9.F C 7 . O 2 n M.@X;X;X@XM.n 2 # r L.I.P.G J ^.&X+XOX",
"[.|.}._.b.I Z 7 @   ; a m.J.-X:X:X-XJ.m.a 5 V I.#XY.r y b.&X%XoX",
"}.}.|.}.).! r @   + h 1.S.K.*X=X=X*XK.Z.N g A q.$X@XY M T.OX+X}.",
"[.{.{.+X XE.J 0 6 r -.C.S.H.H.S.H.H.H.A.5.b l *.$XG.6.T T.[.|.[.",
"{.{.{.XX|.`.n.! L S ;.g.C.B.V.B.B.C.C.g.<.x < h B.G.6.T n.}.XX[.",
"{.{.}.{.'.oX XQ.L Z Y 4.;.8.8.8.8.;.$.b l ,   & v ,.3.v.^.}.|.}.",
"{.[.{.'.[.+X+XE.V < v =.Q F D W W Z 8 = $ .     & j c._.}.[.{.}.",
"{.}.{.{.'.oX|.k.1 $ f =.Q F F S C B 9 0 q q q q 0 J n.|.OX}.{.{.",
"[.'.'.[.[.oXoXk.9 o f $.@.U U j 5 9 K z.z.z.z.x.z.z.`.oXXX{.{.{.",
"'.}.{.}.'.XX[.E.J w d c c v c s 3 G E. X+XXX}.XX|.[.`.}.`.'.[.}.",
"}.[.}.'.{.}.[.`.W.R w ; : : * w R W.[.+X+XOXOXoXoXoX}.{.'.}.'.'.",
"{.'.{.{.}.{.[.}.{.l.e X . . . e k.`.oX[.XXXX}.XX}.{.}.'.[.{.'.[."
};
