/* XPM */
static char *result[] = {
/* columns rows colors chars-per-pixel */
"32 32 192 2 ",
"   c #000000",
".  c #0B0503",
"X  c #050E0F",
"o  c #1B0404",
"O  c #11060A",
"+  c #150C0B",
"@  c #1D0B0B",
"#  c #070719",
"$  c #0D1C16",
"%  c #210C0C",
"&  c #2A090B",
"*  c #350F0F",
"=  c #29130E",
"-  c #250F11",
";  c #241313",
":  c #2A1515",
">  c #261C16",
",  c #371313",
"<  c #381B1A",
"1  c #11281F",
"2  c #312613",
"3  c #352517",
"4  c #14132A",
"5  c #2C1E30",
"6  c #122727",
"7  c #1A2F31",
"8  c #2B292A",
"9  c #30252C",
"0  c #283228",
"q  c #2D3C31",
"w  c #421817",
"e  c #521718",
"r  c #6A1C1D",
"t  c #4F3519",
"y  c #4B2324",
"u  c #4A2825",
"i  c #572827",
"p  c #57332D",
"a  c #4C2435",
"s  c #593832",
"d  c #632424",
"f  c #682D2D",
"g  c #74262A",
"h  c #673334",
"j  c #6B3533",
"k  c #783A3B",
"l  c #675219",
"z  c #494534",
"x  c #584031",
"c  c #764E3C",
"v  c #1E1A51",
"b  c #28254C",
"n  c #2B245A",
"m  c #533047",
"M  c #493958",
"N  c #473865",
"B  c #4D3E76",
"V  c #513F76",
"C  c #254243",
"Z  c #314F46",
"A  c #355C6E",
"S  c #2F4174",
"D  c #397160",
"F  c #3D6073",
"G  c #5C5347",
"H  c #4C4A51",
"J  c #79534A",
"K  c #724259",
"L  c #7D5550",
"P  c #7D5E56",
"I  c #476D59",
"U  c #457059",
"Y  c #7A635A",
"T  c #534377",
"R  c #6E4667",
"E  c #644A74",
"W  c #747C6B",
"Q  c #797D6C",
"!  c #892627",
"~  c #9B2527",
"^  c #9B2A2B",
"/  c #893B3B",
"(  c #973538",
")  c #B62E32",
"_  c #A73939",
"`  c #BC3235",
"'  c #B83738",
"]  c #C83838",
"[  c #CE3939",
"{  c #D33B3D",
"}  c #874236",
"|  c #9B403E",
" . c #A5453F",
".. c #C9433C",
"X. c #D4443D",
"o. c #DB453E",
"O. c #8C4543",
"+. c #874A49",
"@. c #934540",
"#. c #8D584D",
"$. c #9B564C",
"%. c #834654",
"&. c #8D5750",
"*. c #A44D44",
"=. c #A94F49",
"-. c #AA5149",
";. c #B25B4D",
":. c #9E7243",
">. c #876358",
",. c #936459",
"<. c #986B58",
"1. c #A86C57",
"2. c #B96A5A",
"3. c #AF7A5C",
"4. c #BA795C",
"5. c #8B5C66",
"6. c #8D5C69",
"7. c #815A71",
"8. c #9C6E60",
"9. c #B87B62",
"0. c #DD4840",
"q. c #DA5643",
"w. c #E95442",
"e. c #F25F47",
"r. c #DF6048",
"t. c #CA7D5F",
"y. c #E16449",
"u. c #F86749",
"i. c #FC6448",
"p. c #FF714B",
"a. c #C37965",
"s. c #D97E65",
"d. c #4F8B6D",
"f. c #5F836A",
"g. c #4F8B70",
"h. c #499375",
"j. c #529F7D",
"k. c #668063",
"l. c #79806E",
"z. c #7C8673",
"x. c #6D987F",
"c. c #58A07B",
"v. c #AD9033",
"b. c #95864E",
"n. c #839179",
"m. c #A2847E",
"M. c #C7894E",
"N. c #C88D54",
"B. c #D28D5E",
"V. c #EAB958",
"C. c #D7846B",
"Z. c #D89372",
"A. c #E79272",
"S. c #F2C754",
"D. c #EED56D",
"F. c #FFEA66",
"G. c #40678E",
"H. c #567095",
"J. c #6C6D95",
"K. c #6F9B81",
"L. c #779E83",
"P. c #56A281",
"I. c #5CA483",
"U. c #6EAC8C",
"Y. c #72A88A",
"T. c #6DAF90",
"R. c #6DB090",
"E. c #6FBB97",
"W. c #73B291",
"Q. c #7BB996",
"!. c #66C49B",
"~. c #6FC39C",
"^. c #70C69E",
"/. c #6FCCA3",
"(. c #71C7A0",
"). c #71C9A1",
"_. c #6FD1A6",
"`. c #6FD4A9",
"'. c #74D1A7",
"]. c #73D5A9",
"[. c #76D9AD",
"{. c #76DDB0",
"}. c #A3808F",
"|. c #B1AE9B",
" X c #D99684",
".X c #FBB08D",
"XX c #EDB59B",
"oX c #FFFC86",
"OX c #FFFC95",
"+X c #FFFFBA",
"@X c #B5BBC0",
"#X c #FFFFDF",
/* pixels */
"(./.^._.^.Y.&.} / O.O.O.O.O.O.O.O.O.O.O.O.O.O.} @.>.L././.(.(.(.",
"/.(.(.^.W.z.&.@. .=.-.*.*.*.*.*.*.*.*.*.*.*.*. .( &.z.W.(./././.",
"/././.W.Q &._ 0.q.y.r.r.r.r.r.r.r.r.r.r.r.r.y.o.0.| &.W R./././.",
"/._./.Y.>.( ) ..w.u.p.p.p.p.p.p.p.p.p.p.p.p.p.w...) ( P Y./.`./.",
"/././.Y.Y ( ] [ o.w.i.p.p.p.p.p.p.p.p.p.p.u.w.o.[ ` ( Y Y./././.",
"/.`.`.U.H g ) { { ..w.e.e.e.e.i.i.i.e.u.e.w.X.] [ ' ( Y Y.`.`./.",
"_.].].h.0 w ~ [ [ ] ..X.0.X.0.0.o.o.X.X.X.X.] ] [ ' ( Y U._.`./.",
").(.W.f.z w r ^ [ { { { [ ) ~ ! ! ~ ' [ [ { { ` ^ ! O.8.z.W.~./.",
"^.W.Q ,.1.c w e ~ { X.{ { ^ e & & e ^ [ { { { ~ e i $.9.8.Q T.^.",
"E.K.L -.C.4.x , r ^ ^ _ ' ( y ; ; y ( ' _ ^ ^ r , s 3.s.-.L K.E.",
"E.K.L =.s.Z.<.s < * * e k / k s p k / / e , * < s :.Z.t.=.L K.E.",
"^.U.Q ,.2.C.C.#.>     + y h h h h j h u +     > #.C.C.2.,.Q T.E.",
"(.^.R.z.,.2.C.1.3       + ; : : : : ; +       8 1.C.2.,.z.W.~./.",
"/.)./.T.W 8.a.1.s @                         ; p 1.a.8.W R.`.`.(.",
").).`./.R.z.8.$.k u @                     @ y k $.8.z.R./._.)./.",
"(./.(.[.{.U.G f f i < ; : : : : : : : : ; < i f d G U.{.[.(.(.(.",
"^.^.^.[.[.I.q o = 3 i h h h h h h f h j j i < - @ q c.{.{._.^./.",
"/.'.'.!.j.D C 6 X ; h O.k i i i i i i k O.j - X 6 C D j.!.`.'./.",
").[.].j.Z C F A 6 % f k y - ; @ % = - y k j @ 6 A F b Z c.'.]./.",
").^.W.k.z H H.G.7 @ w y 3 8 a Z Z b 3 3 y < + 7 G.H.H z k.Q.^.^.",
"^.Y.Q <.4.}.J.S 4 . O 2 l b.|.@X@X|.b.l 2 o . 4 S J.m.3.<.l.U.^.",
"E.x.L ;.A.XX}.H #   @ t v.D.+X#X#X+XD.v.t +   # M }.XXA.;.J x.E.",
"E.x.L -.C..X XL > O u :.V.F.oXOXOXoXF.V.:.u + ; +. X.XA.-.L x.E.",
"~.U.Q ,.2.t.4.J 8 5 +.B.V.S.S.V.S.S.S.V.B.+.8 8 J 4.t.2.,.Q U.~.",
"^.^.W.n.,.} i 9 b N 8.t.B.N.N.M.M.N.N.C.t.8.M b 8 i } ,.n.W.~./.",
"/._.'.Q.z.s + X b E 7.5.5.5.6.6.6.5.5.6.6.7.E b X @ s z.Q._._./.",
"/.)._.'.W.I $ O a R E T B B V V T T B B T E R a O $ I W.'._./.(.",
"^./.(.[.].g.1 o d %.R V B N n v v n N B B R %.d o 1 g.].[.(.^./.",
"^.^.^.[.[.h.6 @ d O.%.K K m 4 X # 4 m K K %.O.d @ 1 h.].[.(.(.(.",
"^.^.^.].).P.Z 0 u h j j j p 0 0 7 0 p j j j h u 0 Z P.'.'.^./.).",
"/.^.^.'.^.~.I.U 0 = = = = 0 U c.c.U 0 = = : ; 0 U I.~./.).^.^.^.",
"^./.^.'.^.].^.g.0 . . . . 0 d.'.^.d.0 . . . . 0 g.^.'.).)./.(.)."
};
