/* XPM */
static char *result[] = {
/* columns rows colors chars-per-pixel */
"32 32 207 2 ",
"   c #010000",
".  c #0B0403",
"X  c #00000C",
"o  c #1A0000",
"O  c #140B0B",
"+  c #1C0E0C",
"@  c #030412",
"#  c #190E15",
"$  c #200C0C",
"%  c #2A090B",
"&  c #350F0F",
"*  c #22100C",
"=  c #29120E",
"-  c #230D11",
";  c #241313",
":  c #2A1515",
">  c #261C16",
",  c #371413",
"<  c #381A1A",
"1  c #11271B",
"2  c #33210A",
"3  c #2F2B1B",
"4  c #352517",
"5  c #1D0D25",
"6  c #0F122E",
"7  c #321B2A",
"8  c #15292B",
"9  c #173228",
"0  c #1A3329",
"q  c #2C2D24",
"w  c #283229",
"e  c #382436",
"r  c #2C3C32",
"t  c #39383A",
"y  c #431917",
"u  c #521718",
"i  c #6A1C1D",
"p  c #4B3116",
"a  c #482623",
"s  c #4B2324",
"d  c #572627",
"f  c #5B372D",
"g  c #4C3335",
"h  c #5B3630",
"j  c #672C2D",
"k  c #74262A",
"l  c #6A302E",
"z  c #652C31",
"x  c #673334",
"c  c #6B3433",
"v  c #77393B",
"b  c #665116",
"n  c #4D4133",
"m  c #7A483E",
"M  c #191C44",
"N  c #322B51",
"B  c #27306B",
"V  c #4B2F52",
"C  c #632F4A",
"Z  c #493667",
"A  c #4C3D77",
"S  c #553F76",
"D  c #2B4C4A",
"F  c #3C414A",
"G  c #2C5744",
"H  c #366453",
"J  c #364E6C",
"K  c #584E46",
"L  c #75514B",
"P  c #774258",
"I  c #7C5650",
"U  c #7E5C55",
"Y  c #446F58",
"T  c #786259",
"R  c #5C4D68",
"E  c #54427C",
"W  c #6B4A68",
"Q  c #41756D",
"!  c #797D6C",
"~  c #892627",
"^  c #9B2527",
"/  c #9B2A2B",
"(  c #893B3B",
")  c #973538",
"_  c #B62E32",
"`  c #A73939",
"'  c #BC3235",
"]  c #B83738",
"[  c #C83838",
"{  c #CE3939",
"}  c #D33B3D",
"|  c #9B403E",
" . c #815632",
".. c #A5453F",
"X. c #C9433C",
"o. c #D4443D",
"O. c #DB453E",
"+. c #8A3F40",
"@. c #8C4543",
"#. c #874947",
"$. c #994A46",
"%. c #8D584D",
"&. c #9A5A4C",
"*. c #834957",
"=. c #895855",
"-. c #92595F",
";. c #A44D44",
":. c #A94F49",
">. c #AB5148",
",. c #A65E52",
"<. c #9D6A49",
"1. c #826259",
"2. c #8F6559",
"3. c #966859",
"4. c #A76B58",
"5. c #BA6959",
"6. c #B3785F",
"7. c #895A69",
"8. c #9C6E60",
"9. c #9E7279",
"0. c #B87A63",
"q. c #A96B72",
"w. c #DD4840",
"e. c #DA5643",
"r. c #E95442",
"t. c #F25F47",
"y. c #DF6048",
"u. c #C36C5C",
"i. c #E16449",
"p. c #F86749",
"a. c #FC6448",
"s. c #FF714B",
"d. c #C47C63",
"f. c #D67C63",
"g. c #DA7E66",
"h. c #4A8B6E",
"j. c #59886C",
"k. c #4C8C71",
"l. c #4E9778",
"z. c #559979",
"x. c #79806E",
"c. c #658B72",
"v. c #7A8976",
"b. c #54A17D",
"n. c #A98C2E",
"m. c #95864E",
"M. c #838977",
"N. c #948D7C",
"B. c #82937B",
"V. c #BB8478",
"C. c #CA8953",
"Z. c #C58859",
"A. c #CC9159",
"S. c #D0AC45",
"D. c #E0AB5D",
"F. c #E9B958",
"G. c #D6866C",
"H. c #D3906A",
"J. c #ED9573",
"K. c #E2A279",
"L. c #F3C856",
"P. c #EED66D",
"I. c #FFEB67",
"U. c #3B4982",
"Y. c #486991",
"T. c #656798",
"R. c #509184",
"E. c #79818A",
"W. c #6E9B81",
"Q. c #759E83",
"!. c #5AA682",
"~. c #5CA585",
"^. c #5AA295",
"/. c #69A283",
"(. c #6EAC8C",
"). c #72A88A",
"_. c #68AB94",
"`. c #68B993",
"'. c #6FBB97",
"]. c #73B291",
"[. c #78B696",
"{. c #6EC59D",
"}. c #70C59E",
"|. c #6FCCA3",
" X c #70C7A0",
".X c #71C9A1",
"XX c #7BCAA6",
"oX c #6FD1A6",
"OX c #6FD5A9",
"+X c #6ED8AC",
"@X c #74D1A6",
"#X c #75D5A9",
"$X c #7AD6AD",
"%X c #79D9AD",
"&X c #A39E86",
"*X c #B1AE9B",
"=X c #92A1B9",
"-X c #C19881",
";X c #CDAD9B",
":X c #95C4A7",
">X c #89DCB5",
",X c #8FE1BB",
"<X c #FFFE87",
"1X c #FFFC95",
"2X c #FFFFBA",
"3X c #B5BBC0",
"4X c #FFFFDF",
/* pixels */
" X X|.|.{.Q.1.( ( @.@.@.@.@.| #.| @.@.@.@.@.@.| | T Q. X.X X.X X",
" X.X}.{.].v.%.| ..>.>.;.;.;.;.;.$.$.;.;.;.;.;...| %.M.]. X X.X.X",
"|.oX|.].! %.;.[ e.i.y.y.i.y.y.y.y.y.y.y.y.i.i.O...` %.x.].|.oX|.",
"|.oX|.).U ) _ o.r.p.s.s.s.s.s.s.s.s.s.s.s.s.s.r.O.' ) 1.).|.oX|.",
"|.oX.X/.U ) _ { O.r.a.s.s.s.s.s.s.s.s.s.s.p.r.O.{ ' ) 1.).|.oX|.",
"|.OX#X(.T ) ' } { X.r.t.t.t.a.a.a.p.t.p.t.r.X.{ { _ k K ~.@X#X.X",
"|.OXoX(.T ) ] { { [ X.w.o.o.w.w.O.O.o.o.o.X.[ } } ^ y w l.#X+X.X",
" X X'.v.8.$.~ / ' } } } { _ ^ ~ ~ ^ ] { } } } [ / i < n j.[.XX.X",
"'.(.! 8.6.&.s u ^ O.} } } / u % % u / [ } } } / u y m <.3.! ].'.",
"'.W.U >.G.6.n , i / / _ ] ) s - - s ) ] ` / / i , n 0.g.>.U W.'.",
"'.W.I :.f.H.3.x < & & s v +.v h h c @.( u , , , x <.H.G.:.I W.'.",
"{.(.! 2.5.G.G.%.>     O a x c x c c x a O     > %.H.G.0.3.! (. X",
" X X].v.2.5.g.4.4       O ; : : : : ; O       4 4.G.5.2.v.]. X X",
"|.|.oX_.! 3.d.4.h +                       . # h 4.u.$.T (.+XOX|.",
"|..XoX|.].B.8.&.v s +                     O s m &.$.( T (.+X+X|.",
" X X X#XoX/.K l l d < ; : : : : : : : : ; < d c c c #.8.B.(. X X",
"|.}.}.%XOXb.r O ; < d c c c x l x x x c c d < : - a <.0.8.! (.'.",
"}.}.|.%X%X!.N X   * c @.v d d d d d d v @.c ;   @ g 6.f.>.I W.'.",
"}.|.}.@X#X_.J M X * c v s - + $ $ - - s m c ; @ M R V.G.>.I W.'.",
"|..X|.`.l.R.Y.U.M 5 a a 4 3 t F N t 3 4 a < + @ B E q.5.4.M.].}.",
".X@X.Xz.G D Y.T.U.M ; 2 b m.*X3X3X*Xm.b 2 O . 6 B E *.3.&X*X@X|.",
"@X#X@Xk.w t E.=XT.N 5 p n.P.2X4X4X2XP.n.p + . @ 6 V W N.:X,X$XoX",
"|.#X@Xc.K #.-X;X9.C d  .S.I.<X1X1X<XI.F.<.f +   # t E.:X>X#XoX.X",
"|.#X.X/.=.5.J.K.%.z v 5.D.L.L.L.L.L.L.F.A.2.e 6 8 H [.>X>X X X X",
"|.oX.X/.1.5.J.6.x , l 4.d.A.C.C.C.C.C.Z.d.-.Z J Q b..X%X@X}.}.}.",
"|.oX X].! 3.,.c $   , j c L 7.7.7.7.7.-.,.*.V J ^.@X#X{.}. X}.|.",
"}..X|..X].c.n +     . - % 7 Z S S A A W *.c 7 D ~.$X#X{.}.|.|.}.",
"|.}.}.#X@Xb.G 9 0 0 0 0 0 8 M N Z A S W *.d o 1 h.@X$X X|.}.}.|.",
"|.}.}.@X@X{.l.h.k.l.l.l.l.H 8 5 V P P P *.d o 1 h.@X%X.X}.|.}.}.",
"}.}.|..X}.}.oX#X@X@XXX%X+X~.G 3 s j l c c a q G b.@X@X}.}..X|..X",
"|.}..X}..X.X@X@X#X$X#X%X%X|.b.Y q = = = ; w Y ~.{.|..X.X X X}.}.",
".X}. X.X X}..X@X@X.X@X@X@X#X{.h.w . . . . w k.{.@X}.|.}..X}.|..X"
};
