/* XPM */
static char *abd9ad4e549c4ee39e20b2e683be47d6wZUqWiCuJWWNxqe7[] = {
/* columns rows colors chars-per-pixel */
"32 32 198 2 ",
"   c #020302",
".  c #0D0302",
"X  c #07070B",
"o  c #190708",
"O  c #080216",
"+  c #061D17",
"@  c #270709",
"#  c #350908",
"$  c #20110F",
"%  c #271A14",
"&  c #391617",
"*  c #311D15",
"=  c #13281F",
"-  c #2A231B",
";  c #352419",
":  c #071D28",
">  c #1F1F2A",
",  c #241E28",
"<  c #0A2921",
"1  c #192826",
"2  c #1E3729",
"3  c #2C2725",
"4  c #263329",
"5  c #33362F",
"6  c #272536",
"7  c #26363B",
"8  c #3D3D3D",
"9  c #5E1214",
"0  c #7E1E1F",
"q  c #4D2E29",
"w  c #5D2825",
"e  c #463932",
"r  c #75292B",
"t  c #752F30",
"y  c #6D3632",
"u  c #2D4034",
"i  c #4A4836",
"p  c #654A37",
"a  c #1D1349",
"s  c #1C3B41",
"d  c #312E62",
"f  c #343271",
"g  c #5D3E47",
"h  c #7F3740",
"j  c #2B5544",
"k  c #305947",
"l  c #28614D",
"z  c #31546B",
"x  c #376E60",
"c  c #575847",
"v  c #595853",
"b  c #694943",
"n  c #70504A",
"m  c #437159",
"M  c #79665C",
"N  c #7C695F",
"B  c #4D477A",
"V  c #6A4A77",
"C  c #55697B",
"Z  c #79667B",
"A  c #8F1A1A",
"S  c #922A29",
"D  c #90312E",
"F  c #8D3D3E",
"G  c #9B3736",
"H  c #A62524",
"J  c #AE3336",
"K  c #AA3F3F",
"L  c #CF3129",
"P  c #A7483E",
"I  c #C4433D",
"U  c #E14134",
"Y  c #F55438",
"T  c #813841",
"R  c #8E4542",
"E  c #994B46",
"W  c #955C48",
"Q  c #8F5551",
"!  c #995751",
"~  c #A84D42",
"^  c #A75146",
"/  c #91694F",
"(  c #85665A",
")  c #A76656",
"_  c #AB745A",
"`  c #B07258",
"'  c #965E61",
"]  c #BA5F61",
"[  c #8D7362",
"{  c #947B68",
"}  c #826E7C",
"|  c #9B7170",
" . c #B57462",
".. c #BB7D66",
"X. c #D54942",
"o. c #D65750",
"O. c #E65A45",
"+. c #F55B43",
"@. c #D8615E",
"#. c #E26146",
"$. c #E1644A",
"%. c #F1614A",
"&. c #C56C71",
"*. c #E36D67",
"=. c #EE7261",
"-. c #FF7768",
";. c #4E8A6D",
":. c #4F8C71",
">. c #459274",
",. c #4C9375",
"<. c #539B7A",
"1. c #638369",
"2. c #6D8E74",
"3. c #788773",
"4. c #778974",
"5. c #79957C",
"6. c #59A17C",
"7. c #908872",
"8. c #B88A68",
"9. c #B4906F",
"0. c #AD8E7B",
"q. c #AF927D",
"w. c #D4866B",
"e. c #D0906F",
"r. c #D58D75",
"t. c #CB9874",
"y. c #FE8270",
"u. c #E79677",
"i. c #EFA47C",
"p. c #3A4488",
"a. c #3C5595",
"s. c #5C538B",
"d. c #685A8A",
"f. c #646497",
"g. c #697594",
"h. c #586BA3",
"j. c #5177A6",
"k. c #6B6FA3",
"l. c #6974A5",
"z. c #827285",
"x. c #A67B83",
"c. c #6A9F83",
"v. c #73948C",
"b. c #55A281",
"n. c #5AA584",
"m. c #6BA789",
"M. c #6DB291",
"N. c #6EBC98",
"B. c #73B493",
"V. c #77B795",
"C. c #598EBC",
"Z. c #6F84A9",
"A. c #7487A8",
"S. c #6EC39C",
"D. c #68C69D",
"F. c #70C69F",
"G. c #6FCCA2",
"H. c #71C7A0",
"J. c #71CAA2",
"K. c #73D1A7",
"L. c #75D5AA",
"P. c #78D7AC",
"I. c #76DAAE",
"U. c #568FC0",
"Y. c #958E90",
"T. c #9292B0",
"R. c #AF92AA",
"E. c #BFB2BC",
"W. c #D48D96",
"Q. c #D2949B",
"!. c #C4A78F",
"~. c #ECA482",
"^. c #E8AE82",
"/. c #FAAC83",
"(. c #F7B188",
"). c #FFBB8B",
"_. c #E8B09C",
"`. c #FFBE91",
"'. c #D2ACAF",
"]. c #FEC499",
"[. c #FFD39B",
"{. c #D7C3A3",
"}. c #FFD8A3",
"|. c #FFECB8",
" X c #AEB8D9",
".X c #EDBCC2",
"XX c #D8C4C6",
"oX c #C1C9DF",
"OX c #D8C6D5",
"+X c #ECCBCB",
"@X c #FFDDC4",
"#X c #FCE3D0",
"$X c #FFF0D1",
"%X c #C7CDE3",
"&X c #CED7F1",
"*X c #F3DEE0",
"=X c #DCECFF",
"-X c #EFF0F8",
/* pixels */
"H.H.H.J.H.v.( F F R R R R R R R R R R R R R R F F ( v.H.K.H.H.H.",
"G.G.G.H.V.7.! G P ^ ^ ~ P P ~ ^ ^ ~ P P ~ ^ ^ P G Q 7.V.H.G.G.G.",
"G.G.G.B.3.Q K I O.$.$.#.O.O.#.$.$.#.O.O.#.$.$.O.I K Q 3.B.G.G.G.",
"J.K.J.c.c r J X.+.+.Y %.=.=.%.Y Y %.=.=.%.Y +.+.X.J r c c.J.K.J.",
"J.L.K.,.5 & r ~ X.U U @.W.W.@.L L @.W.W.@.U U X.~ r & 5 ,.K.L.J.",
"J.P.L.>.<   & t G J o.W.OXOXQ.*.*.Q.OXOXW.o.J G t &   < >.L.P.J.",
"J.P.L.,.<   . & r ! Q.OX-X-X*X+X+X*X-X-XOXQ.! r & .   < ,.L.P.J.",
"H.H.V.2.c -   o b x.R. X%X%X%XoX%X%X%X%X XR.x.b o   - c 2.V.H.H.",
"S.M.4.7.8.M % 3 { '.T.h.k.k.l.l.l.l.k.k.h.T.'.{ 3 % ( 8.7.4.M.S.",
"N.m.M  .(.t.p b !.+XT.B d d B f.f.B d d B T.+X!.b p t.(. .M c.N.",
"N.c.M  .(.^._ | '.#XXX} 6 6 } E.E.} 6 6 } XX#X'.| _ ^.(. .M c.N.",
"S.M.4.{ t.r.w.r._.@X@Xq.3 - 0.$X$X0.- - q.@X@X_.r.w.r.t.{ 4.M.S.",
"H.S.B.5.{  .w.u.~.].}.9.; ; 9.|.|.9.; ; 9.}.].~.u.w. .{ 5.B.S.G.",
"H.J.G.M.4.[ ..r.u./.).8.p p t.}.}.t.p p 8.)./.u.r...[ 4.M.K.K.H.",
"H.J.G.G.M.5.{  .w.u.i.e. .8.^.[.[.^.8. .e.i.u.w. .{ 5.M.G.K.J.H.",
"H.F.H.L.I.m.v y W _ ..w.u./.`.].].`./.u.w..._ W y v m.I.L.H.F.H.",
"H.F.H.I.I.n.u $ * q n ` u././.~.~././.u.` n q * $ u n.I.I.G.F.H.",
"H.K.K.D.<.x s : X o w E ) / / W W / / ) E w o X : s x <.D.K.J.H.",
"J.L.K.<.j s z z : @ 0 G w ; * * * * ; w G 0 @ : z z s u <.K.L.J.",
"H.H.V.1.i v Y.v.7 # A H 9 $ , 6 6 , $ 9 H A # 7 v.Y.v i 1.V.H.H.",
"S.M.4.[ _ !.{.Y.5 # A L H h Z A.A.Z h H L A # 5 Y.{.!._ [ 4.B.S.",
"N.m.M ) i.}.[.8.; @ T o.+.*.'.&X&X'.*.+.o.T @ ; 8.[.}.~.` N m.N.",
"N.m.M ) u.`.)._ * > Z W.-.y..X=X=X.Xy.-.W.Z > ; ` ).`.u.) N m.N.",
"F.B.4.( W ` _ n 8 z l.R.&.&.R. X XR.&.&.R.l.z 8 n ` ` W ( 4.B.F.",
"H.H.V.1.e ; ; 8 C j.h.s.V V d.f.f.d.V V s.h.j.C 8 ; ; e 1.V.H.H.",
"J.L.K.n.k +   1 C A.h.a.a.a.p.f f p.a.a.a.h.A.C 1   + k n.K.L.J.",
"H.J.J.D.b.l + o g z.Z.C.U.j.p.f f p.j.U.C.Z.z.g o + l b.D.K.J.H.",
"H.H.H.P.P.,.= o w ' Y.T.T.g.f a a f g.T.T.Y.' w o = ,.P.P.H.H.H.",
"H.F.H.P.P.,.1 o w ! ] ] | n 6 O O 6 n | ] ] ! w o 1 ,.P.P.H.F.H.",
"H.H.H.K.J.b.k 4 e y D S r q 4 2 2 4 q r S D y e 4 k b.J.K.H.H.H.",
"H.H.H.J.H.S.n.m 4 % # # @ 3 m 6.6.m 3 @ # # % 4 m n.S.H.J.H.H.H.",
"H.H.H.H.H.K.S.:.4 . . . . 4 ;.J.J.;.4 . . . . 4 :.S.K.H.H.H.H.H."
};
