/* wall.xpm */
static char *wall_xpm[] = {
"32 32 2 1",
"0 c #006400",  // dark green
"1 c #228B22",  // lighter forest green
"11110000111100001111000011110000",
"10001111100011111000111110001111",
"11110000111100001111000011110000",
"10001111100011111000111110001111",
"11110000111100001111000011110000",
"10001111100011111000111110001111",
"11110000111100001111000011110000",
"10001111100011111000111110001111",
"11110000111100001111000011110000",
"10001111100011111000111110001111",
"11110000111100001111000011110000",
"10001111100011111000111110001111",
"11110000111100001111000011110000",
"10001111100011111000111110001111",
"11110000111100001111000011110000",
"10001111100011111000111110001111",
"11110000111100001111000011110000",
"10001111100011111000111110001111",
"11110000111100001111000011110000",
"10001111100011111000111110001111",
"11110000111100001111000011110000",
"10001111100011111000111110001111",
"11110000111100001111000011110000",
"10001111100011111000111110001111",
"11110000111100001111000011110000",
"10001111100011111000111110001111",
"11110000111100001111000011110000",
"10001111100011111000111110001111",
"11110000111100001111000011110000",
"10001111100011111000111110001111",
"11110000111100001111000011110000",
"10001111100011111000111110001111"
};
